;-- START GCODE --
;Sliced for Type A Machines Series 1
;Sliced at: Tue 17-04-2018 19:28:10
;Basic settings:
; Layer height: 0.2
; Walls: 1
; Fill: 12
; Print Speed: 60
; Support: 0
; Retraction Speed: 35
; Retraction Distance: 0.4
;Print time: 1 hour 28 minutes
;Filament used: 9.16m 27.0g
;Settings based on: Type A Machines Everyday PLA
G21        ;metric values
G90        ;absolute positioning
G28     ;move to endstops
G29     ;allows for auto-leveling
G1 Z15.0 F12000 ;move the platform down 15mm
G1 X150 Y5 F12000 ;center
M140 S50 ;Prep Heat Bed
M109 S220 ;Heat To temp
M190 S50 ;Heat Bed to temp
G1 X150 Y5 Z0.3 ;move the platform to purge extrusion
G92 E0 ;zero the extruded length
G1 F200 X250 E30 ;extrude 30mm of feed stock
G92 E0 ;zero the extruded length again
G1 X150 Y150  Z25 F12000 ;recenter and begin
G1 F12000

;Layer count: 161
;LAYER:0
M107
G0 F12000 X65.037 Y159.827 Z0.200
;TYPE:SKIRT
G1 F1800 X75.413 Y157.045 E0.44662
G1 X107.255 Y175.430 E1.97528
G1 X110.958 Y169.016 E2.28319
G1 X163.433 Y199.314 E4.80238
G1 X191.142 Y151.320 E7.10642
G1 X191.317 Y151.018 E7.12093
G1 X193.700 Y146.820 E7.32162
G1 X202.082 Y151.659 E7.72401
G1 X220.536 Y119.697 E9.25842
G1 X220.537 Y119.697 E9.25846
G1 X221.581 Y117.881 E9.34555
G1 X228.904 Y115.920 E9.66073
G1 X232.767 Y120.956 E9.92461
G1 X173.745 Y223.185 E14.83230
G1 X173.565 Y223.497 E14.84728
G1 X171.070 Y227.816 E15.05465
G1 X67.726 Y168.150 E20.01588
G1 X67.593 Y168.073 E20.02226
G1 X64.210 Y166.122 E20.18463
G1 X65.037 Y159.827 E20.44859
G0 F12000 X65.489 Y160.223
G1 F1800 X75.342 Y157.582 E20.87269
G1 X107.438 Y176.113 E22.41353
G1 X111.141 Y169.699 E22.72144
G1 X163.616 Y199.997 E25.24063
G1 X191.575 Y151.571 E27.56542
G1 X191.770 Y151.233 E27.58164
G1 X193.886 Y147.505 E27.75986
G1 X202.265 Y152.342 E28.16210
G1 X220.969 Y119.947 E29.71730
G1 X221.911 Y118.310 E29.79582
G1 X228.710 Y116.489 E30.08845
G1 X232.167 Y120.995 E30.32457
G1 X173.312 Y222.935 E35.21839
G1 X173.132 Y223.247 E35.23336
G1 X170.887 Y227.133 E35.41995
G1 X67.976 Y167.717 E40.36039
G1 X67.829 Y167.632 E40.36745
G1 X64.749 Y165.856 E40.51526
G1 X65.489 Y160.223 E40.75147
G0 F12000 X65.941 Y160.620
G1 F1800 X75.272 Y158.119 E41.15310
G1 X107.621 Y176.796 E42.70608
G1 X111.324 Y170.382 E43.01399
G1 X163.799 Y200.680 E45.53319
G1 X192.008 Y151.821 E47.87876
G1 X192.203 Y151.484 E47.89495
G1 X194.072 Y148.190 E48.05240
G1 X202.448 Y153.025 E48.45449
G1 X221.402 Y120.197 E50.03048
G1 X222.241 Y118.740 E50.10038
G1 X228.517 Y117.058 E50.37051
G1 X231.567 Y121.034 E50.57885
G1 X172.879 Y222.685 E55.45879
G1 X172.699 Y222.997 E55.47376
G1 X170.704 Y226.450 E55.63956
G1 X68.227 Y167.285 E60.55916
G1 X68.081 Y167.200 E60.56618
G1 X65.289 Y165.590 E60.70018
G1 X65.941 Y160.620 E60.90858
G0 F12000 X66.393 Y161.016
G1 F1800 X75.201 Y158.655 E61.28770
G1 X107.804 Y177.479 E62.85288
G1 X111.507 Y171.065 E63.16079
G1 X163.982 Y201.363 E65.67999
G1 X192.440 Y152.071 E68.04632
G1 X192.636 Y151.734 E68.06253
G1 X194.259 Y148.874 E68.19925
G1 X202.631 Y153.708 E68.60117
G1 X221.835 Y120.447 E70.19794
G1 X221.836 Y120.447 E70.19799
G1 X222.571 Y119.169 E70.25928
G1 X228.324 Y117.628 E70.50689
G1 X230.967 Y121.073 E70.68742
G1 X172.446 Y222.435 E75.55348
G1 X172.266 Y222.747 E75.56845
G1 X170.521 Y225.767 E75.71346
G1 X68.478 Y166.852 E80.61224
G1 X68.332 Y166.767 E80.61926
G1 X65.828 Y165.323 E80.73944
G1 X66.393 Y161.016 E80.92004
G0 F12000 X66.846 Y161.413
G1 F1800 X75.130 Y159.192 E81.27661
G1 X107.987 Y178.162 E82.85397
G1 X111.690 Y171.748 E83.16188
G1 X164.165 Y202.046 E85.68108
G1 X192.873 Y152.321 E88.06820
G1 X193.068 Y151.985 E88.08435
G1 X194.445 Y149.559 E88.20033
G1 X202.814 Y154.391 E88.60210
G1 X222.268 Y120.697 E90.21966
G1 X222.901 Y119.598 E90.27239
G1 X228.130 Y118.197 E90.49745
G1 X230.367 Y121.113 E90.65025
G1 X170.339 Y225.085 E95.64162
G1 X68.728 Y166.419 E100.51966
G1 X68.592 Y166.340 E100.52620
G1 X66.367 Y165.057 E100.63298
G1 X66.846 Y161.413 E100.78578
G0 F12000 X67.298 Y161.809
G1 F1800 X75.060 Y159.728 E101.11989
G1 X108.170 Y178.845 E102.70941
G1 X111.873 Y172.431 E103.01733
G1 X164.348 Y202.729 E105.53652
G1 X193.306 Y152.572 E107.94440
G1 X193.501 Y152.235 E107.96058
G1 X194.631 Y150.244 E108.05576
G1 X202.997 Y155.074 E108.45739
G1 X222.701 Y120.947 E110.09573
G1 X222.702 Y120.947 E110.09577
G1 X223.230 Y120.027 E110.13988
G1 X227.937 Y118.767 E110.34246
G1 X229.767 Y121.152 E110.46744
G1 X170.156 Y224.402 E115.42414
G1 X68.979 Y165.987 E120.28134
G1 X68.835 Y165.903 E120.28827
G1 X66.906 Y164.791 E120.38084
G1 X67.298 Y161.809 E120.50589
G0 F12000 X67.750 Y162.206
G1 F1800 X74.989 Y160.265 E120.81748
G1 X108.353 Y179.528 E122.41919
G1 X112.056 Y173.114 E122.72710
G1 X164.531 Y203.412 E125.24629
G1 X193.739 Y152.822 E127.67496
G1 X193.926 Y152.499 E127.69048
G1 X194.817 Y150.929 E127.76553
G1 X203.180 Y155.757 E128.16700
G1 X223.134 Y121.197 E129.82613
G1 X223.560 Y120.457 E129.86163
G1 X227.744 Y119.336 E130.04172
G1 X229.167 Y121.191 E130.13892
G1 X169.973 Y223.719 E135.06096
G1 X69.230 Y165.554 E139.89733
G1 X69.086 Y165.471 E139.90424
G1 X67.446 Y164.525 E139.98296
G1 X67.750 Y162.206 E140.08019
G0 F12000 X68.202 Y162.602
G1 F1800 X74.919 Y160.802 E140.36931
G1 X108.536 Y180.211 E141.98316
G1 X112.239 Y173.797 E142.29107
G1 X164.714 Y204.095 E144.81027
G1 X194.172 Y153.072 E147.25972
G1 X194.366 Y152.737 E147.27581
G1 X195.003 Y151.614 E147.32949
G1 X203.363 Y156.440 E147.73081
G1 X223.567 Y121.447 E149.41073
G1 X223.890 Y120.886 E149.43765
G1 X227.550 Y119.905 E149.59518
G1 X228.567 Y121.231 E149.66466
G1 X169.790 Y223.036 E154.55200
G1 X69.480 Y165.122 E159.36756
G1 X69.338 Y165.039 E159.37440
G1 X67.985 Y164.259 E159.43933
G1 X68.202 Y162.602 E159.50881
G0 F12000 X68.655 Y162.998
G1 F1800 X74.848 Y161.338 E159.77537
G1 X108.719 Y180.894 E161.40143
G1 X112.422 Y174.480 E161.70934
G1 X164.897 Y204.778 E164.22853
G1 X194.798 Y152.988 E166.71481
G1 X194.799 Y152.988 E166.71485
G1 X195.190 Y152.299 E166.74779
G1 X203.546 Y157.123 E167.14893
G1 X224.000 Y121.697 E168.84963
G1 X224.220 Y121.315 E168.86796
G1 X227.357 Y120.475 E169.00298
G1 X227.967 Y121.270 E169.04464
G1 X169.607 Y222.353 E173.89731
G1 X69.731 Y164.689 E178.69206
G1 X69.591 Y164.607 E178.69880
G1 X69.591 Y164.608 E178.69884
G1 X68.524 Y163.992 E178.75007
G1 X68.655 Y162.998 E178.79175
G0 F12000 X69.107 Y163.395
G1 F1800 X74.777 Y161.875 E179.03580
G1 X108.902 Y181.577 E180.67404
G1 X112.605 Y175.163 E180.98195
G1 X165.080 Y205.461 E183.50114
G1 X195.231 Y153.238 E186.00821
G1 X195.232 Y153.238 E186.00825
G1 X195.376 Y152.984 E186.02039
G1 X203.729 Y157.806 E186.42138
G1 X224.550 Y121.744 E188.15261
G1 X227.164 Y121.044 E188.26512
G1 X227.367 Y121.309 E188.27900
G1 X169.424 Y221.670 E193.09700
G1 X69.063 Y163.726 E197.91503
G1 X69.107 Y163.395 E197.92892
G1 F2100 E197.52892
G0 F12000 X71.276 Y163.848
;TYPE:WALL-INNER
G1 F2100 E197.92892
G1 F1800 X74.635 Y162.948 E198.07349
G1 X108.512 Y182.507 E199.69982
G1 X109.268 Y182.945 E199.73615
G1 X112.972 Y176.530 E200.04412
G1 X164.761 Y206.432 E202.53038
G1 X165.450 Y206.821 E202.56328
G1 X195.744 Y154.351 E205.08221
G1 X204.096 Y159.173 E205.48316
G1 X225.210 Y122.602 E207.23881
G1 X225.512 Y122.521 E207.25181
G1 X169.057 Y220.303 E211.94603
G1 X71.276 Y163.848 E216.64021
G0 F12000 X69.981 Y163.678
;TYPE:WALL-OUTER
G1 F1800 X74.706 Y162.411 E216.84360
G1 X109.086 Y182.261 E218.49409
G1 X112.789 Y175.847 E218.80200
G1 X165.009 Y205.998 E221.30895
G1 X165.265 Y206.142 E221.32117
G1 X195.561 Y153.668 E223.84028
G1 X203.913 Y158.490 E224.24123
G1 X224.881 Y122.173 E225.98471
G1 X226.548 Y121.726 E226.05646
G1 X169.240 Y220.986 E230.82163
G1 X69.981 Y163.678 E235.58676
G1 F2100 E235.18676
G0 F12000 X72.000 Y163.835
;TYPE:SKIN
G1 F2100 E235.58676
G1 F1800 X72.250 Y164.207 E235.59622
G1 X72.500 Y163.701 E235.61969
G0 F12000 X73.000 Y163.567
G1 F1800 X73.000 Y164.641 E235.66434
G0 F12000 X73.500 Y164.929
G1 F1800 X73.500 Y163.433 E235.72654
G0 F12000 X74.000 Y163.299
G1 F1800 X74.000 Y165.218 E235.80632
G0 F12000 X74.500 Y165.507
G1 F1800 X74.500 Y163.165 E235.90369
G0 F12000 X75.000 Y163.362
G1 F1800 X75.000 Y165.795 E236.00484
G0 F12000 X75.500 Y166.084
G1 F1800 X75.500 Y163.650 E236.10604
G0 F12000 X76.000 Y163.939
G1 F1800 X76.000 Y166.373 E236.20723
G0 F12000 X76.500 Y166.661
G1 F1800 X76.500 Y164.228 E236.30838
G0 F12000 X77.000 Y164.516
G1 F1800 X77.000 Y166.950 E236.40958
G0 F12000 X77.500 Y167.239
G1 F1800 X77.500 Y164.805 E236.51077
G0 F12000 X78.000 Y165.094
G1 F1800 X78.000 Y167.527 E236.61192
G0 F12000 X78.500 Y167.816
G1 F1800 X78.500 Y165.383 E236.71307
G0 F12000 X79.000 Y165.671
G1 F1800 X79.000 Y168.105 E236.81427
G0 F12000 X79.500 Y168.393
G1 F1800 X79.500 Y165.960 E236.91542
G0 F12000 X80.000 Y166.249
G1 F1800 X80.000 Y168.682 E237.01657
G0 F12000 X80.500 Y168.971
G1 F1800 X80.500 Y166.537 E237.11777
G0 F12000 X81.000 Y166.826
G1 F1800 X81.000 Y169.259 E237.21892
G0 F12000 X81.500 Y169.548
G1 F1800 X81.500 Y167.115 E237.32007
G0 F12000 X82.000 Y167.404
G1 F1800 X82.000 Y169.837 E237.42122
G0 F12000 X82.500 Y170.125
G1 F1800 X82.500 Y167.692 E237.52238
G0 F12000 X83.000 Y167.981
G1 F1800 X83.000 Y170.414 E237.62353
G0 F12000 X83.500 Y170.703
G1 F1800 X83.500 Y168.270 E237.72468
G0 F12000 X84.000 Y168.558
G1 F1800 X84.000 Y170.991 E237.82583
G0 F12000 X84.500 Y171.280
G1 F1800 X84.500 Y168.847 E237.92699
G0 F12000 X85.000 Y169.136
G1 F1800 X85.000 Y171.569 E238.02814
G0 F12000 X85.500 Y171.858
G1 F1800 X85.500 Y169.424 E238.12933
G0 F12000 X86.000 Y169.713
G1 F1800 X86.000 Y172.146 E238.23048
G0 F12000 X86.500 Y172.435
G1 F1800 X86.500 Y170.002 E238.33164
G0 F12000 X87.000 Y170.291
G1 F1800 X87.000 Y172.724 E238.43279
G0 F12000 X87.500 Y173.012
G1 F1800 X87.500 Y170.579 E238.53394
G0 F12000 X88.000 Y170.868
G1 F1800 X88.000 Y173.301 E238.63509
G0 F12000 X88.500 Y173.590
G1 F1800 X88.500 Y171.157 E238.73625
G0 F12000 X89.000 Y171.445
G1 F1800 X89.000 Y173.878 E238.83740
G0 F12000 X89.500 Y174.167
G1 F1800 X89.500 Y171.734 E238.93855
G0 F12000 X90.000 Y172.023
G1 F1800 X90.000 Y174.456 E239.03970
G0 F12000 X90.500 Y174.744
G1 F1800 X90.500 Y172.311 E239.14086
G0 F12000 X91.000 Y172.600
G1 F1800 X91.000 Y175.033 E239.24201
G0 F12000 X91.500 Y175.322
G1 F1800 X91.500 Y172.889 E239.34316
G0 F12000 X92.000 Y173.178
G1 F1800 X92.000 Y175.610 E239.44427
G0 F12000 X92.500 Y175.899
G1 F1800 X92.500 Y173.466 E239.54542
G0 F12000 X93.000 Y173.755
G1 F1800 X93.000 Y176.188 E239.64658
G0 F12000 X93.500 Y176.476
G1 F1800 X93.500 Y174.044 E239.74769
G0 F12000 X94.000 Y174.332
G1 F1800 X94.000 Y176.765 E239.84884
G0 F12000 X94.500 Y177.054
G1 F1800 X94.500 Y174.621 E239.94999
G0 F12000 X95.000 Y174.910
G1 F1800 X95.000 Y177.342 E240.05110
G0 F12000 X95.500 Y177.631
G1 F1800 X95.500 Y175.198 E240.15226
G0 F12000 X96.000 Y175.487
G1 F1800 X96.000 Y177.920 E240.25341
G0 F12000 X96.500 Y178.208
G1 F1800 X96.500 Y175.776 E240.35452
G0 F12000 X97.000 Y176.065
G1 F1800 X97.000 Y178.497 E240.45563
G0 F12000 X97.500 Y178.786
G1 F1800 X97.500 Y176.353 E240.55678
G0 F12000 X98.000 Y176.642
G1 F1800 X98.000 Y179.075 E240.65793
G0 F12000 X98.500 Y179.363
G1 F1800 X98.500 Y176.931 E240.75904
G0 F12000 X99.000 Y177.219
G1 F1800 X99.000 Y179.652 E240.86020
G0 F12000 X99.500 Y179.941
G1 F1800 X99.500 Y177.508 E240.96135
G0 F12000 X100.000 Y177.797
G1 F1800 X100.000 Y180.229 E241.06246
G0 F12000 X100.500 Y180.518
G1 F1800 X100.500 Y178.085 E241.16361
G0 F12000 X101.000 Y178.374
G1 F1800 X101.000 Y180.807 E241.26477
G0 F12000 X101.500 Y181.095
G1 F1800 X101.500 Y178.663 E241.36588
G0 F12000 X102.000 Y178.952
G1 F1800 X102.000 Y181.384 E241.46699
G0 F12000 X102.500 Y181.673
G1 F1800 X102.500 Y179.240 E241.56814
G0 F12000 X103.000 Y179.529
G1 F1800 X103.000 Y181.961 E241.66925
G0 F12000 X103.500 Y182.250
G1 F1800 X103.500 Y179.818 E241.77036
G1 F2100 E241.37036
G0 F12000 X111.500 Y179.430
G1 F2100 E241.77036
G1 F1800 X111.500 Y186.869 E242.07964
G0 F12000 X111.000 Y186.580
G1 F1800 X111.000 Y180.295 E242.34094
G0 F12000 X110.500 Y181.160
G1 F1800 X110.500 Y186.292 E242.55430
G0 F12000 X110.000 Y186.003
G1 F1800 X110.000 Y182.026 E242.71965
G0 F12000 X109.500 Y182.891
G1 F1800 X109.500 Y185.714 E242.83701
G0 F12000 X109.000 Y185.425
G1 F1800 X109.000 Y182.993 E242.93812
G0 F12000 X108.500 Y182.705
G1 F1800 X108.500 Y185.137 E243.03924
G0 F12000 X108.000 Y184.848
G1 F1800 X108.000 Y182.416 E243.14035
G0 F12000 X107.500 Y182.127
G1 F1800 X107.500 Y184.559 E243.24146
G0 F12000 X107.000 Y184.271
G1 F1800 X107.000 Y181.839 E243.34257
G0 F12000 X106.500 Y181.550
G1 F1800 X106.500 Y183.982 E243.44368
G0 F12000 X106.000 Y183.693
G1 F1800 X106.000 Y181.261 E243.54479
G0 F12000 X105.500 Y180.972
G1 F1800 X105.500 Y183.405 E243.64594
G0 F12000 X105.000 Y183.116
G1 F1800 X105.000 Y180.684 E243.74705
G0 F12000 X104.500 Y180.395
G1 F1800 X104.500 Y182.827 E243.84816
G0 F12000 X104.000 Y182.539
G1 F1800 X104.000 Y180.106 E243.94932
G1 F2100 E243.54932
G0 F12000 X112.000 Y178.564
G1 F2100 E243.94932
G1 F1800 X112.000 Y187.158 E244.30661
G0 F12000 X112.500 Y187.446
G1 F1800 X112.500 Y177.699 E244.71185
G0 F12000 X113.000 Y176.834
G1 F1800 X113.000 Y187.735 E245.16506
G0 F12000 X113.500 Y188.024
G1 F1800 X113.500 Y177.038 E245.62180
G0 F12000 X114.000 Y177.326
G1 F1800 X114.000 Y188.312 E246.07855
G0 F12000 X114.500 Y188.601
G1 F1800 X114.500 Y177.615 E246.53529
G0 F12000 X115.000 Y177.903
G1 F1800 X115.000 Y188.890 E246.99208
G0 F12000 X115.500 Y189.178
G1 F1800 X115.500 Y178.192 E247.44882
G0 F12000 X116.000 Y178.481
G1 F1800 X116.000 Y189.467 E247.90557
G0 F12000 X116.500 Y189.756
G1 F1800 X116.500 Y178.769 E248.36235
G0 F12000 X117.000 Y179.058
G1 F1800 X117.000 Y190.044 E248.81910
G0 F12000 X117.500 Y190.333
G1 F1800 X117.500 Y179.346 E249.27588
G0 F12000 X118.000 Y179.635
G1 F1800 X118.000 Y190.622 E249.73267
G0 F12000 X118.500 Y190.910
G1 F1800 X118.500 Y179.923 E250.18946
G0 F12000 X119.000 Y180.212
G1 F1800 X119.000 Y191.199 E250.64624
G0 F12000 X119.500 Y191.488
G1 F1800 X119.500 Y180.501 E251.10303
G0 F12000 X120.000 Y180.789
G1 F1800 X120.000 Y191.776 E251.55982
G0 F12000 X120.500 Y192.065
G1 F1800 X120.500 Y181.078 E252.01660
G0 F12000 X121.000 Y181.366
G1 F1800 X121.000 Y192.354 E252.47343
G0 F12000 X121.500 Y192.642
G1 F1800 X121.500 Y181.655 E252.93022
G0 F12000 X122.000 Y181.943
G1 F1800 X122.000 Y192.931 E253.38705
G0 F12000 X122.500 Y193.220
G1 F1800 X122.500 Y182.232 E253.84387
G0 F12000 X123.000 Y182.521
G1 F1800 X123.000 Y193.509 E254.30070
G0 F12000 X123.500 Y193.797
G1 F1800 X123.500 Y182.809 E254.75753
G0 F12000 X124.000 Y183.098
G1 F1800 X124.000 Y194.086 E255.21436
G0 F12000 X124.500 Y194.375
G1 F1800 X124.500 Y183.386 E255.67123
G0 F12000 X125.000 Y183.675
G1 F1800 X125.000 Y194.663 E256.12805
G0 F12000 X125.500 Y194.952
G1 F1800 X125.500 Y183.963 E256.58492
G0 F12000 X126.000 Y184.252
G1 F1800 X126.000 Y195.241 E257.04179
G0 F12000 X126.500 Y195.529
G1 F1800 X126.500 Y184.540 E257.49866
G0 F12000 X127.000 Y184.829
G1 F1800 X127.000 Y195.818 E257.95553
G0 F12000 X127.500 Y196.107
G1 F1800 X127.500 Y185.118 E258.41240
G0 F12000 X128.000 Y185.406
G1 F1800 X128.000 Y196.395 E258.86927
G0 F12000 X128.500 Y196.684
G1 F1800 X128.500 Y185.695 E259.32614
G0 F12000 X129.000 Y185.983
G1 F1800 X129.000 Y196.973 E259.78305
G0 F12000 X129.500 Y197.261
G1 F1800 X129.500 Y186.272 E260.23992
G0 F12000 X130.000 Y186.560
G1 F1800 X130.000 Y197.550 E260.69683
G0 F12000 X130.500 Y197.839
G1 F1800 X130.500 Y186.849 E261.15374
G0 F12000 X131.000 Y187.138
G1 F1800 X131.000 Y198.127 E261.61061
G0 F12000 X131.500 Y198.416
G1 F1800 X131.500 Y187.426 E262.06752
G0 F12000 X132.000 Y187.715
G1 F1800 X132.000 Y198.705 E262.52444
G0 F12000 X132.500 Y198.993
G1 F1800 X132.500 Y188.003 E262.98135
G0 F12000 X133.000 Y188.292
G1 F1800 X133.000 Y199.282 E263.43826
G0 F12000 X133.500 Y199.571
G1 F1800 X133.500 Y188.580 E263.89521
G0 F12000 X134.000 Y188.869
G1 F1800 X134.000 Y199.859 E264.35212
G0 F12000 X134.500 Y200.148
G1 F1800 X134.500 Y189.158 E264.80903
G0 F12000 X135.000 Y189.446
G1 F1800 X135.000 Y200.437 E265.26599
G0 F12000 X135.500 Y200.726
G1 F1800 X135.500 Y189.735 E265.72294
G0 F12000 X136.000 Y190.023
G1 F1800 X136.000 Y201.014 E266.17989
G0 F12000 X136.500 Y201.303
G1 F1800 X136.500 Y190.312 E266.63684
G0 F12000 X137.000 Y190.600
G1 F1800 X137.000 Y201.592 E267.09384
G0 F12000 X137.500 Y201.880
G1 F1800 X137.500 Y190.889 E267.55079
G0 F12000 X138.000 Y191.178
G1 F1800 X138.000 Y202.169 E268.00774
G0 F12000 X138.500 Y202.458
G1 F1800 X138.500 Y191.466 E268.46474
G0 F12000 X139.000 Y191.755
G1 F1800 X139.000 Y202.746 E268.92169
G0 F12000 X139.500 Y203.035
G1 F1800 X139.500 Y192.043 E269.37868
G0 F12000 X140.000 Y192.332
G1 F1800 X140.000 Y203.324 E269.83568
G0 F12000 X140.500 Y203.612
G1 F1800 X140.500 Y192.620 E270.29267
G0 F12000 X141.000 Y192.909
G1 F1800 X141.000 Y203.901 E270.74967
G0 F12000 X141.500 Y204.190
G1 F1800 X141.500 Y193.198 E271.20666
G0 F12000 X142.000 Y193.486
G1 F1800 X142.000 Y204.478 E271.66366
G0 F12000 X142.500 Y204.767
G1 F1800 X142.500 Y193.775 E272.12065
G0 F12000 X143.000 Y194.063
G1 F1800 X143.000 Y205.056 E272.57769
G0 F12000 X143.500 Y205.344
G1 F1800 X143.500 Y194.352 E273.03468
G0 F12000 X144.000 Y194.640
G1 F1800 X144.000 Y205.633 E273.49172
G0 F12000 X144.500 Y205.922
G1 F1800 X144.500 Y194.929 E273.94875
G0 F12000 X145.000 Y195.218
G1 F1800 X145.000 Y206.210 E274.40575
G0 F12000 X145.500 Y206.499
G1 F1800 X145.500 Y195.506 E274.86278
G0 F12000 X146.000 Y195.795
G1 F1800 X146.000 Y206.788 E275.31982
G0 F12000 X146.500 Y207.077
G1 F1800 X146.500 Y196.083 E275.77689
G0 F12000 X147.000 Y196.372
G1 F1800 X147.000 Y207.365 E276.23393
G0 F12000 X147.500 Y207.654
G1 F1800 X147.500 Y196.660 E276.69101
G0 F12000 X148.000 Y196.949
G1 F1800 X148.000 Y207.943 E277.14809
G0 F12000 X148.500 Y208.231
G1 F1800 X148.500 Y197.238 E277.60512
G0 F12000 X149.000 Y197.526
G1 F1800 X149.000 Y208.520 E278.06220
G0 F12000 X149.500 Y208.809
G1 F1800 X149.500 Y197.815 E278.51928
G0 F12000 X150.000 Y198.103
G1 F1800 X150.000 Y209.097 E278.97635
G0 F12000 X150.500 Y209.386
G1 F1800 X150.500 Y198.392 E279.43343
G0 F12000 X151.000 Y198.680
G1 F1800 X151.000 Y209.675 E279.89055
G0 F12000 X151.500 Y209.963
G1 F1800 X151.500 Y198.969 E280.34763
G0 F12000 X152.000 Y199.257
G1 F1800 X152.000 Y210.252 E280.80475
G0 F12000 X152.500 Y210.541
G1 F1800 X152.500 Y199.546 E281.26187
G0 F12000 X153.000 Y199.835
G1 F1800 X153.000 Y210.829 E281.71894
G0 F12000 X153.500 Y211.118
G1 F1800 X153.500 Y200.123 E282.17606
G0 F12000 X154.000 Y200.412
G1 F1800 X154.000 Y211.407 E282.63318
G0 F12000 X154.500 Y211.695
G1 F1800 X154.500 Y200.700 E283.09030
G0 F12000 X155.000 Y200.989
G1 F1800 X155.000 Y211.984 E283.54742
G0 F12000 X155.500 Y212.273
G1 F1800 X155.500 Y201.277 E284.00458
G0 F12000 X156.000 Y201.566
G1 F1800 X156.000 Y212.561 E284.46170
G0 F12000 X156.500 Y212.850
G1 F1800 X156.500 Y201.855 E284.91882
G0 F12000 X157.000 Y202.143
G1 F1800 X157.000 Y213.139 E285.37598
G0 F12000 X157.500 Y213.427
G1 F1800 X157.500 Y202.432 E285.83310
G0 F12000 X158.000 Y202.720
G1 F1800 X158.000 Y213.716 E286.29026
G0 F12000 X158.500 Y214.005
G1 F1800 X158.500 Y203.009 E286.74742
G0 F12000 X159.000 Y203.297
G1 F1800 X159.000 Y214.294 E287.20462
G0 F12000 X159.500 Y214.582
G1 F1800 X159.500 Y203.586 E287.66178
G0 F12000 X160.000 Y203.875
G1 F1800 X160.000 Y214.871 E288.11894
G0 F12000 X160.500 Y215.160
G1 F1800 X160.500 Y204.163 E288.57614
G0 F12000 X161.000 Y204.452
G1 F1800 X161.000 Y215.448 E289.03330
G0 F12000 X161.500 Y215.737
G1 F1800 X161.500 Y204.740 E289.49051
G0 F12000 X162.000 Y205.029
G1 F1800 X162.000 Y216.026 E289.94771
G0 F12000 X162.500 Y216.314
G1 F1800 X162.500 Y205.317 E290.40491
G0 F12000 X163.000 Y205.606
G1 F1800 X163.000 Y216.603 E290.86211
G0 F12000 X163.500 Y216.892
G1 F1800 X163.500 Y205.895 E291.31931
G0 F12000 X164.000 Y206.183
G1 F1800 X164.000 Y217.180 E291.77652
G0 F12000 X164.500 Y217.469
G1 F1800 X164.500 Y206.472 E292.23372
G0 F12000 X165.000 Y206.760
G1 F1800 X165.000 Y217.758 E292.69096
G0 F12000 X165.500 Y218.046
G1 F1800 X165.500 Y207.049 E293.14816
G0 F12000 X166.000 Y206.217
G1 F1800 X166.000 Y218.335 E293.65197
G0 F12000 X166.500 Y218.624
G1 F1800 X166.500 Y205.351 E294.20380
G0 F12000 X167.000 Y204.485
G1 F1800 X167.000 Y218.912 E294.80360
G0 F12000 X167.500 Y219.201
G1 F1800 X167.500 Y203.619 E295.45143
G0 F12000 X168.000 Y202.753
G1 F1800 X168.000 Y219.490 E296.14727
G0 F12000 X168.500 Y219.778
G1 F1800 X168.500 Y201.887 E296.89109
G0 F12000 X169.000 Y201.021
G1 F1800 X169.000 Y220.050 E297.68223
G0 F12000 X169.500 Y219.184
G1 F1800 X169.500 Y200.155 E298.47336
G0 F12000 X170.000 Y199.289
G1 F1800 X170.000 Y218.318 E299.26450
G0 F12000 X170.500 Y217.452
G1 F1800 X170.500 Y198.423 E300.05563
G0 F12000 X171.000 Y197.557
G1 F1800 X171.000 Y216.586 E300.84676
G0 F12000 X171.500 Y215.720
G1 F1800 X171.500 Y196.691 E301.63790
G0 F12000 X172.000 Y195.825
G1 F1800 X172.000 Y214.854 E302.42903
G0 F12000 X172.500 Y213.988
G1 F1800 X172.500 Y194.959 E303.22016
G0 F12000 X173.000 Y194.093
G1 F1800 X173.000 Y213.122 E304.01130
G0 F12000 X173.500 Y212.256
G1 F1800 X173.500 Y193.227 E304.80243
G0 F12000 X174.000 Y192.361
G1 F1800 X174.000 Y211.390 E305.59357
G0 F12000 X174.500 Y210.524
G1 F1800 X174.500 Y191.495 E306.38470
G0 F12000 X175.000 Y190.629
G1 F1800 X175.000 Y209.658 E307.17583
G0 F12000 X175.500 Y208.792
G1 F1800 X175.500 Y189.764 E307.96693
G0 F12000 X176.000 Y188.898
G1 F1800 X176.000 Y207.926 E308.75802
G0 F12000 X176.500 Y207.060
G1 F1800 X176.500 Y188.032 E309.54911
G0 F12000 X177.000 Y187.166
G1 F1800 X177.000 Y206.194 E310.34020
G0 F12000 X177.500 Y205.328
G1 F1800 X177.500 Y186.300 E311.13130
G0 F12000 X178.000 Y185.434
G1 F1800 X178.000 Y204.462 E311.92239
G0 F12000 X178.500 Y203.596
G1 F1800 X178.500 Y184.568 E312.71348
G0 F12000 X179.000 Y183.702
G1 F1800 X179.000 Y202.730 E313.50457
G0 F12000 X179.500 Y201.864
G1 F1800 X179.500 Y182.836 E314.29567
G0 F12000 X180.000 Y181.970
G1 F1800 X180.000 Y200.998 E315.08676
G0 F12000 X180.500 Y200.132
G1 F1800 X180.500 Y181.104 E315.87785
G0 F12000 X181.000 Y180.238
G1 F1800 X181.000 Y199.266 E316.66894
G0 F12000 X181.500 Y198.400
G1 F1800 X181.500 Y179.372 E317.46003
G0 F12000 X182.000 Y178.506
G1 F1800 X182.000 Y197.534 E318.25113
G0 F12000 X182.500 Y196.668
G1 F1800 X182.500 Y177.640 E319.04222
G0 F12000 X183.000 Y176.774
G1 F1800 X183.000 Y195.802 E319.83331
G0 F12000 X183.500 Y194.936
G1 F1800 X183.500 Y175.908 E320.62440
G0 F12000 X184.000 Y175.042
G1 F1800 X184.000 Y194.070 E321.41550
G0 F12000 X184.500 Y193.204
G1 F1800 X184.500 Y174.176 E322.20659
G0 F12000 X185.000 Y173.311
G1 F1800 X185.000 Y192.338 E322.99764
G0 F12000 X185.500 Y191.472
G1 F1800 X185.500 Y172.445 E323.78869
G0 F12000 X186.000 Y171.579
G1 F1800 X186.000 Y190.606 E324.57974
G0 F12000 X186.500 Y189.740
G1 F1800 X186.500 Y170.713 E325.37079
G0 F12000 X187.000 Y169.847
G1 F1800 X187.000 Y188.874 E326.16184
G0 F12000 X187.500 Y188.008
G1 F1800 X187.500 Y168.981 E326.95289
G0 F12000 X188.000 Y168.115
G1 F1800 X188.000 Y187.142 E327.74394
G0 F12000 X188.500 Y186.276
G1 F1800 X188.500 Y167.249 E328.53499
G0 F12000 X189.000 Y166.383
G1 F1800 X189.000 Y185.410 E329.32604
G0 F12000 X189.500 Y184.544
G1 F1800 X189.500 Y165.517 E330.11710
G0 F12000 X190.000 Y164.651
G1 F1800 X190.000 Y183.678 E330.90815
G0 F12000 X190.500 Y182.812
G1 F1800 X190.500 Y163.785 E331.69920
G0 F12000 X191.000 Y162.919
G1 F1800 X191.000 Y181.946 E332.49025
G0 F12000 X191.500 Y181.080
G1 F1800 X191.500 Y162.053 E333.28130
G0 F12000 X192.000 Y161.187
G1 F1800 X192.000 Y180.214 E334.07235
G0 F12000 X192.500 Y179.348
G1 F1800 X192.500 Y160.321 E334.86340
G0 F12000 X193.000 Y159.455
G1 F1800 X193.000 Y178.482 E335.65445
G0 F12000 X193.500 Y177.616
G1 F1800 X193.500 Y158.589 E336.44550
G0 F12000 X194.000 Y157.723
G1 F1800 X194.000 Y176.750 E337.23655
G0 F12000 X194.500 Y175.884
G1 F1800 X194.500 Y156.858 E338.02756
G0 F12000 X195.000 Y155.992
G1 F1800 X195.000 Y175.018 E338.81857
G0 F12000 X195.500 Y174.152
G1 F1800 X195.500 Y155.126 E339.60958
G0 F12000 X196.000 Y154.702
G1 F1800 X196.000 Y173.286 E340.38221
G0 F12000 X196.500 Y172.420
G1 F1800 X196.500 Y154.991 E341.10683
G0 F12000 X197.000 Y155.279
G1 F1800 X197.000 Y171.554 E341.78346
G0 F12000 X197.500 Y170.688
G1 F1800 X197.500 Y155.568 E342.41208
G0 F12000 X198.000 Y155.857
G1 F1800 X198.000 Y169.822 E342.99268
G0 F12000 X198.500 Y168.956
G1 F1800 X198.500 Y156.145 E343.52530
G0 F12000 X199.000 Y156.434
G1 F1800 X199.000 Y168.090 E344.00990
G0 F12000 X199.500 Y167.224
G1 F1800 X199.500 Y156.723 E344.44648
G0 F12000 X200.000 Y157.012
G1 F1800 X200.000 Y166.358 E344.83504
G0 F12000 X200.500 Y165.492
G1 F1800 X200.500 Y157.300 E345.17562
G0 F12000 X201.000 Y157.589
G1 F1800 X201.000 Y164.626 E345.46819
G0 F12000 X201.500 Y163.760
G1 F1800 X201.500 Y157.878 E345.71273
G0 F12000 X202.000 Y158.166
G1 F1800 X202.000 Y162.894 E345.90930
G0 F12000 X202.500 Y162.028
G1 F1800 X202.500 Y158.455 E346.05785
G0 F12000 X203.000 Y158.744
G1 F1800 X203.000 Y161.162 E346.15838
G0 F12000 X203.500 Y160.296
G1 F1800 X203.500 Y159.033 E346.21089
G0 F12000 X204.000 Y159.321
G1 F1800 X204.000 Y159.430 E346.21542
;LAYER:1
M106 S10
G0 F12000 X204.096 Y159.173 Z0.400
;TYPE:WALL-INNER
G1 F2220 X225.210 Y122.602 E347.97107
G1 X225.513 Y122.521 E347.98411
G1 X169.058 Y220.303 E352.67833
G1 X71.276 Y163.848 E357.37255
G1 X74.635 Y162.948 E357.51712
G1 X109.269 Y182.944 E359.17980
G1 X112.972 Y176.530 E359.48771
G1 X164.141 Y206.074 E361.94421
G1 X164.583 Y206.330 E361.96544
G1 X165.447 Y206.826 E362.00686
G1 X195.473 Y154.818 E364.50358
G1 X195.743 Y154.351 E364.52601
G1 X204.096 Y159.173 E364.92700
G0 F12000 X203.913 Y158.490
;TYPE:WALL-OUTER
G1 F2220 X224.881 Y122.173 E366.67047
G1 X226.550 Y121.726 E366.74231
G1 X169.241 Y220.986 E371.50749
G1 X69.981 Y163.678 E376.27266
G1 X74.706 Y162.411 E376.47604
G1 X109.086 Y182.261 E378.12653
G1 X112.789 Y175.847 E378.43445
G1 X165.264 Y206.145 E380.95364
G1 X195.561 Y153.668 E383.47288
G1 X203.913 Y158.490 E383.87384
G0 F12000 X203.447 Y159.000
;TYPE:SKIN
G1 F2220 X193.263 Y159.000 E384.29724
G0 F12000 X192.974 Y159.500
G1 F2220 X203.959 Y159.500 E384.75394
G1 F2100 E384.35394
G0 F12000 X202.581 Y158.500
G1 F2100 E384.75394
G1 F2220 X193.552 Y158.500 E385.12932
G0 F12000 X193.840 Y158.000
G1 F2220 X201.715 Y158.000 E385.45673
G0 F12000 X200.848 Y157.500
G1 F2220 X194.129 Y157.500 E385.73607
G0 F12000 X194.418 Y157.000
G1 F2220 X199.982 Y157.000 E385.96740
G0 F12000 X199.116 Y156.500
G1 F2220 X194.706 Y156.500 E386.15074
G0 F12000 X194.995 Y156.000
G1 F2220 X198.250 Y156.000 E386.28607
G0 F12000 X197.383 Y155.500
G1 F2220 X195.284 Y155.500 E386.37334
G0 F12000 X195.572 Y155.000
G1 F2220 X196.517 Y155.000 E386.41262
G1 F2100 E386.01262
G0 F12000 X192.686 Y160.000
G1 F2100 E386.41262
G1 F2220 X203.670 Y160.000 E386.86929
G0 F12000 X203.382 Y160.500
G1 F2220 X192.397 Y160.500 E387.32599
G0 F12000 X192.108 Y161.000
G1 F2220 X203.093 Y161.000 E387.78269
G0 F12000 X202.804 Y161.500
G1 F2220 X191.820 Y161.500 E388.23935
G0 F12000 X191.531 Y162.000
G1 F2220 X202.516 Y162.000 E388.69606
G0 F12000 X202.227 Y162.500
G1 F2220 X191.242 Y162.500 E389.15276
G0 F12000 X190.954 Y163.000
G1 F2220 X201.938 Y163.000 E389.60942
G0 F12000 X201.650 Y163.500
G1 F2220 X190.665 Y163.500 E390.06613
G0 F12000 X190.376 Y164.000
G1 F2220 X201.361 Y164.000 E390.52283
G0 F12000 X201.072 Y164.500
G1 F2220 X190.088 Y164.500 E390.97949
G0 F12000 X189.799 Y165.000
G1 F2220 X200.784 Y165.000 E391.43619
G0 F12000 X200.495 Y165.500
G1 F2220 X189.510 Y165.500 E391.89290
G0 F12000 X189.222 Y166.000
G1 F2220 X200.206 Y166.000 E392.34956
G0 F12000 X199.918 Y166.500
G1 F2220 X188.933 Y166.500 E392.80626
G0 F12000 X188.644 Y167.000
G1 F2220 X199.629 Y167.000 E393.26297
G0 F12000 X199.340 Y167.500
G1 F2220 X188.356 Y167.500 E393.71963
G0 F12000 X188.067 Y168.000
G1 F2220 X199.052 Y168.000 E394.17633
G0 F12000 X198.763 Y168.500
G1 F2220 X187.778 Y168.500 E394.63303
G0 F12000 X187.490 Y169.000
G1 F2220 X198.474 Y169.000 E395.08970
G0 F12000 X198.186 Y169.500
G1 F2220 X187.201 Y169.500 E395.54640
G0 F12000 X186.912 Y170.000
G1 F2220 X197.897 Y170.000 E396.00310
G0 F12000 X197.608 Y170.500
G1 F2220 X186.624 Y170.500 E396.45976
G0 F12000 X186.335 Y171.000
G1 F2220 X197.320 Y171.000 E396.91647
G0 F12000 X197.031 Y171.500
G1 F2220 X186.046 Y171.500 E397.37317
G0 F12000 X185.758 Y172.000
G1 F2220 X196.742 Y172.000 E397.82983
G0 F12000 X196.453 Y172.500
G1 F2220 X185.469 Y172.500 E398.28649
G0 F12000 X185.180 Y173.000
G1 F2220 X196.165 Y173.000 E398.74320
G0 F12000 X195.876 Y173.500
G1 F2220 X184.892 Y173.500 E399.19986
G0 F12000 X184.603 Y174.000
G1 F2220 X195.587 Y174.000 E399.65652
G0 F12000 X195.299 Y174.500
G1 F2220 X184.314 Y174.500 E400.11322
G0 F12000 X184.026 Y175.000
G1 F2220 X195.010 Y175.000 E400.56988
G0 F12000 X194.721 Y175.500
G1 F2220 X183.737 Y175.500 E401.02655
G0 F12000 X183.448 Y176.000
G1 F2220 X194.433 Y176.000 E401.48325
G0 F12000 X194.144 Y176.500
G1 F2220 X183.160 Y176.500 E401.93991
G0 F12000 X182.871 Y177.000
G1 F2220 X193.855 Y177.000 E402.39657
G0 F12000 X193.567 Y177.500
G1 F2220 X182.582 Y177.500 E402.85328
G0 F12000 X182.294 Y178.000
G1 F2220 X193.278 Y178.000 E403.30994
G0 F12000 X192.989 Y178.500
G1 F2220 X182.005 Y178.500 E403.76660
G0 F12000 X181.716 Y179.000
G1 F2220 X192.701 Y179.000 E404.22330
G0 F12000 X192.412 Y179.500
G1 F2220 X181.427 Y179.500 E404.68001
G0 F12000 X181.139 Y180.000
G1 F2220 X192.123 Y180.000 E405.13667
G0 F12000 X191.835 Y180.500
G1 F2220 X180.850 Y180.500 E405.59337
G0 F12000 X180.561 Y181.000
G1 F2220 X191.546 Y181.000 E406.05007
G0 F12000 X191.257 Y181.500
G1 F2220 X180.273 Y181.500 E406.50674
G0 F12000 X179.984 Y182.000
G1 F2220 X190.969 Y182.000 E406.96344
G0 F12000 X190.680 Y182.500
G1 F2220 X179.695 Y182.500 E407.42014
G0 F12000 X179.407 Y183.000
G1 F2220 X190.391 Y183.000 E407.87680
G0 F12000 X190.103 Y183.500
G1 F2220 X179.118 Y183.500 E408.33351
G0 F12000 X178.829 Y184.000
G1 F2220 X189.814 Y184.000 E408.79021
G0 F12000 X189.525 Y184.500
G1 F2220 X178.541 Y184.500 E409.24687
G0 F12000 X178.252 Y185.000
G1 F2220 X189.236 Y185.000 E409.70353
G0 F12000 X188.948 Y185.500
G1 F2220 X177.963 Y185.500 E410.16024
G0 F12000 X177.675 Y186.000
G1 F2220 X188.659 Y186.000 E410.61690
G0 F12000 X188.370 Y186.500
G1 F2220 X177.386 Y186.500 E411.07356
G0 F12000 X177.097 Y187.000
G1 F2220 X188.082 Y187.000 E411.53026
G0 F12000 X187.793 Y187.500
G1 F2220 X176.809 Y187.500 E411.98692
G0 F12000 X176.520 Y188.000
G1 F2220 X187.504 Y188.000 E412.44359
G0 F12000 X187.216 Y188.500
G1 F2220 X176.231 Y188.500 E412.90029
G0 F12000 X175.943 Y189.000
G1 F2220 X186.927 Y189.000 E413.35695
G0 F12000 X186.638 Y189.500
G1 F2220 X175.654 Y189.500 E413.81361
G0 F12000 X175.365 Y190.000
G1 F2220 X186.350 Y190.000 E414.27032
G0 F12000 X186.061 Y190.500
G1 F2220 X175.077 Y190.500 E414.72698
G0 F12000 X174.788 Y191.000
G1 F2220 X185.772 Y191.000 E415.18364
G0 F12000 X185.484 Y191.500
G1 F2220 X174.499 Y191.500 E415.64034
G0 F12000 X174.211 Y192.000
G1 F2220 X185.195 Y192.000 E416.09700
G0 F12000 X184.906 Y192.500
G1 F2220 X173.922 Y192.500 E416.55367
G0 F12000 X173.633 Y193.000
G1 F2220 X184.618 Y193.000 E417.01037
G0 F12000 X184.329 Y193.500
G1 F2220 X173.345 Y193.500 E417.46703
G0 F12000 X173.056 Y194.000
G1 F2220 X184.040 Y194.000 E417.92369
G0 F12000 X183.752 Y194.500
G1 F2220 X172.767 Y194.500 E418.38040
G0 F12000 X172.479 Y195.000
G1 F2220 X183.463 Y195.000 E418.83706
G0 F12000 X183.174 Y195.500
G1 F2220 X172.190 Y195.500 E419.29372
G0 F12000 X171.901 Y196.000
G1 F2220 X182.886 Y196.000 E419.75042
G0 F12000 X182.597 Y196.500
G1 F2220 X171.613 Y196.500 E420.20708
G0 F12000 X171.324 Y197.000
G1 F2220 X182.308 Y197.000 E420.66375
G0 F12000 X182.019 Y197.500
G1 F2220 X171.035 Y197.500 E421.12041
G0 F12000 X170.747 Y198.000
G1 F2220 X181.731 Y198.000 E421.57707
G0 F12000 X181.442 Y198.500
G1 F2220 X170.458 Y198.500 E422.03373
G0 F12000 X170.169 Y199.000
G1 F2220 X181.153 Y199.000 E422.49039
G0 F12000 X180.865 Y199.500
G1 F2220 X169.881 Y199.500 E422.94705
G0 F12000 X169.592 Y200.000
G1 F2220 X180.576 Y200.000 E423.40372
G0 F12000 X180.287 Y200.500
G1 F2220 X169.303 Y200.500 E423.86038
G0 F12000 X169.015 Y201.000
G1 F2220 X179.999 Y201.000 E424.31704
G0 F12000 X179.710 Y201.500
G1 F2220 X168.726 Y201.500 E424.77370
G0 F12000 X168.437 Y202.000
G1 F2220 X179.421 Y202.000 E425.23036
G0 F12000 X179.133 Y202.500
G1 F2220 X168.149 Y202.500 E425.68702
G0 F12000 X167.860 Y203.000
G1 F2220 X178.844 Y203.000 E426.14369
G0 F12000 X178.555 Y203.500
G1 F2220 X167.571 Y203.500 E426.60035
G0 F12000 X167.283 Y204.000
G1 F2220 X178.267 Y204.000 E427.05701
G0 F12000 X177.978 Y204.500
G1 F2220 X166.994 Y204.500 E427.51367
G0 F12000 X166.705 Y205.000
G1 F2220 X177.689 Y205.000 E427.97033
G0 F12000 X177.401 Y205.500
G1 F2220 X166.417 Y205.500 E428.42699
G0 F12000 X166.128 Y206.000
G1 F2220 X177.112 Y206.000 E428.88366
G0 F12000 X176.823 Y206.500
G1 F2220 X165.839 Y206.500 E429.34032
G0 F12000 X165.551 Y207.000
G1 F2220 X176.535 Y207.000 E429.79698
G0 F12000 X176.246 Y207.500
G1 F2220 X147.233 Y207.500 E431.00320
G0 F12000 X148.099 Y208.000
G1 F2220 X175.957 Y208.000 E432.16140
G0 F12000 X175.669 Y208.500
G1 F2220 X148.965 Y208.500 E433.27162
G0 F12000 X149.831 Y209.000
G1 F2220 X175.380 Y209.000 E434.33383
G0 F12000 X175.091 Y209.500
G1 F2220 X150.697 Y209.500 E435.34801
G0 F12000 X151.563 Y210.000
G1 F2220 X174.802 Y210.000 E436.31418
G0 F12000 X174.514 Y210.500
G1 F2220 X152.429 Y210.500 E437.23236
G0 F12000 X153.295 Y211.000
G1 F2220 X174.225 Y211.000 E438.10253
G0 F12000 X173.936 Y211.500
G1 F2220 X154.161 Y211.500 E438.92468
G0 F12000 X155.027 Y212.000
G1 F2220 X173.648 Y212.000 E439.69885
G0 F12000 X173.359 Y212.500
G1 F2220 X155.893 Y212.500 E440.42501
G0 F12000 X156.759 Y213.000
G1 F2220 X173.070 Y213.000 E441.10314
G0 F12000 X172.782 Y213.500
G1 F2220 X157.625 Y213.500 E441.73329
G0 F12000 X158.491 Y214.000
G1 F2220 X172.493 Y214.000 E442.31543
G0 F12000 X172.204 Y214.500
G1 F2220 X159.357 Y214.500 E442.84954
G1 F2100 E442.44954
G0 F12000 X164.532 Y206.500
G1 F2100 E442.84954
G1 F2220 X145.501 Y206.500 E443.64076
G0 F12000 X146.367 Y207.000
G1 F2220 X165.398 Y207.000 E444.43198
G1 F2100 E444.03198
G0 F12000 X163.666 Y206.000
G1 F2100 E444.43198
G1 F2220 X144.635 Y206.000 E445.22320
G0 F12000 X143.769 Y205.500
G1 F2220 X162.800 Y205.500 E446.01441
G0 F12000 X161.934 Y205.000
G1 F2220 X142.903 Y205.000 E446.80563
G0 F12000 X142.037 Y204.500
G1 F2220 X161.068 Y204.500 E447.59685
G0 F12000 X160.202 Y204.000
G1 F2220 X141.171 Y204.000 E448.38806
G0 F12000 X140.305 Y203.500
G1 F2220 X159.336 Y203.500 E449.17928
G0 F12000 X158.470 Y203.000
G1 F2220 X139.439 Y203.000 E449.97050
G0 F12000 X138.573 Y202.500
G1 F2220 X157.604 Y202.500 E450.76171
G0 F12000 X156.738 Y202.000
G1 F2220 X137.707 Y202.000 E451.55293
G0 F12000 X136.841 Y201.500
G1 F2220 X155.872 Y201.500 E452.34415
G0 F12000 X155.006 Y201.000
G1 F2220 X135.975 Y201.000 E453.13537
G0 F12000 X135.109 Y200.500
G1 F2220 X154.140 Y200.500 E453.92658
G0 F12000 X153.274 Y200.000
G1 F2220 X134.243 Y200.000 E454.71780
G0 F12000 X133.377 Y199.500
G1 F2220 X152.408 Y199.500 E455.50902
G0 F12000 X151.542 Y199.000
G1 F2220 X132.511 Y199.000 E456.30023
G0 F12000 X131.645 Y198.500
G1 F2220 X150.676 Y198.500 E457.09145
G0 F12000 X149.809 Y198.000
G1 F2220 X130.778 Y198.000 E457.88267
G0 F12000 X129.912 Y197.500
G1 F2220 X148.943 Y197.500 E458.67389
G0 F12000 X148.077 Y197.000
G1 F2220 X129.046 Y197.000 E459.46510
G0 F12000 X128.179 Y196.500
G1 F2220 X147.211 Y196.500 E460.25636
G0 F12000 X146.345 Y196.000
G1 F2220 X127.313 Y196.000 E461.04762
G0 F12000 X126.447 Y195.500
G1 F2220 X145.479 Y195.500 E461.83888
G0 F12000 X144.613 Y195.000
G1 F2220 X125.581 Y195.000 E462.63014
G0 F12000 X124.715 Y194.500
G1 F2220 X143.747 Y194.500 E463.42140
G0 F12000 X142.881 Y194.000
G1 F2220 X123.849 Y194.000 E464.21265
G0 F12000 X122.983 Y193.500
G1 F2220 X142.015 Y193.500 E465.00391
G0 F12000 X141.149 Y193.000
G1 F2220 X122.117 Y193.000 E465.79517
G0 F12000 X121.251 Y192.500
G1 F2220 X140.283 Y192.500 E466.58643
G0 F12000 X139.417 Y192.000
G1 F2220 X120.385 Y192.000 E467.37769
G0 F12000 X119.519 Y191.500
G1 F2220 X138.551 Y191.500 E468.16895
G0 F12000 X137.685 Y191.000
G1 F2220 X118.653 Y191.000 E468.96021
G0 F12000 X117.787 Y190.500
G1 F2220 X136.819 Y190.500 E469.75146
G0 F12000 X135.953 Y190.000
G1 F2220 X116.921 Y190.000 E470.54272
G0 F12000 X116.055 Y189.500
G1 F2220 X135.087 Y189.500 E471.33398
G0 F12000 X134.221 Y189.000
G1 F2220 X115.189 Y189.000 E472.12524
G0 F12000 X114.323 Y188.500
G1 F2220 X133.355 Y188.500 E472.91650
G0 F12000 X132.489 Y188.000
G1 F2220 X113.457 Y188.000 E473.70776
G0 F12000 X112.591 Y187.500
G1 F2220 X131.623 Y187.500 E474.49902
G0 F12000 X130.756 Y187.000
G1 F2220 X111.725 Y187.000 E475.29023
G0 F12000 X110.859 Y186.500
G1 F2220 X129.890 Y186.500 E476.08145
G0 F12000 X129.024 Y186.000
G1 F2220 X109.993 Y186.000 E476.87267
G0 F12000 X109.127 Y185.500
G1 F2220 X128.158 Y185.500 E477.66388
G0 F12000 X127.291 Y185.000
G1 F2220 X108.261 Y185.000 E478.45506
G0 F12000 X107.395 Y184.500
G1 F2220 X126.425 Y184.500 E479.24623
G0 F12000 X125.559 Y184.000
G1 F2220 X106.529 Y184.000 E480.03741
G0 F12000 X105.663 Y183.500
G1 F2220 X124.693 Y183.500 E480.82859
G0 F12000 X123.827 Y183.000
G1 F2220 X109.439 Y183.000 E481.42677
G0 F12000 X109.017 Y183.000
G1 F2220 X104.797 Y183.000 E481.60222
G0 F12000 X103.931 Y182.500
G1 F2220 X108.150 Y182.500 E481.77762
G0 F12000 X107.284 Y182.000
G1 F2220 X103.065 Y182.000 E481.95303
G0 F12000 X102.199 Y181.500
G1 F2220 X106.418 Y181.500 E482.12843
G0 F12000 X105.552 Y181.000
G1 F2220 X101.333 Y181.000 E482.30384
G0 F12000 X100.467 Y180.500
G1 F2220 X104.686 Y180.500 E482.47924
G0 F12000 X103.820 Y180.000
G1 F2220 X99.601 Y180.000 E482.65465
G0 F12000 X98.735 Y179.500
G1 F2220 X102.954 Y179.500 E482.83006
G0 F12000 X102.088 Y179.000
G1 F2220 X97.869 Y179.000 E483.00546
G0 F12000 X97.003 Y178.500
G1 F2220 X101.222 Y178.500 E483.18087
G0 F12000 X100.356 Y178.000
G1 F2220 X96.137 Y178.000 E483.35627
G0 F12000 X95.271 Y177.500
G1 F2220 X99.490 Y177.500 E483.53168
G0 F12000 X98.624 Y177.000
G1 F2220 X94.405 Y177.000 E483.70708
G0 F12000 X93.539 Y176.500
G1 F2220 X97.758 Y176.500 E483.88249
G0 F12000 X96.892 Y176.000
G1 F2220 X92.673 Y176.000 E484.05790
G0 F12000 X91.807 Y175.500
G1 F2220 X96.026 Y175.500 E484.23330
G0 F12000 X95.159 Y175.000
G1 F2220 X90.941 Y175.000 E484.40867
G0 F12000 X90.075 Y174.500
G1 F2220 X94.293 Y174.500 E484.58403
G0 F12000 X93.427 Y174.000
G1 F2220 X89.209 Y174.000 E484.75939
G0 F12000 X88.343 Y173.500
G1 F2220 X92.561 Y173.500 E484.93476
G0 F12000 X91.695 Y173.000
G1 F2220 X87.477 Y173.000 E485.11012
G0 F12000 X86.611 Y172.500
G1 F2220 X90.829 Y172.500 E485.28549
G0 F12000 X89.963 Y172.000
G1 F2220 X85.745 Y172.000 E485.46085
G0 F12000 X84.879 Y171.500
G1 F2220 X89.097 Y171.500 E485.63621
G0 F12000 X88.231 Y171.000
G1 F2220 X84.013 Y171.000 E485.81158
G0 F12000 X83.147 Y170.500
G1 F2220 X87.365 Y170.500 E485.98694
G0 F12000 X86.499 Y170.000
G1 F2220 X82.280 Y170.000 E486.16235
G0 F12000 X81.414 Y169.500
G1 F2220 X85.633 Y169.500 E486.33775
G0 F12000 X84.767 Y169.000
G1 F2220 X80.548 Y169.000 E486.51316
G0 F12000 X79.682 Y168.500
G1 F2220 X83.901 Y168.500 E486.68856
G0 F12000 X83.035 Y168.000
G1 F2220 X78.816 Y168.000 E486.86397
G0 F12000 X77.950 Y167.500
G1 F2220 X82.169 Y167.500 E487.03938
G0 F12000 X81.302 Y167.000
G1 F2220 X77.084 Y167.000 E487.21474
G0 F12000 X76.218 Y166.500
G1 F2220 X80.436 Y166.500 E487.39010
G0 F12000 X79.570 Y166.000
G1 F2220 X75.352 Y166.000 E487.56547
G0 F12000 X74.486 Y165.500
G1 F2220 X78.704 Y165.500 E487.74083
G0 F12000 X77.838 Y165.000
G1 F2220 X73.620 Y165.000 E487.91620
G0 F12000 X72.754 Y164.500
G1 F2220 X76.972 Y164.500 E488.09156
G0 F12000 X76.106 Y164.000
G1 F2220 X71.888 Y164.000 E488.26692
G0 F12000 X73.251 Y163.500
G1 F2220 X75.240 Y163.500 E488.34962
G1 F2100 E487.94962
G0 F12000 X109.728 Y182.500
G1 F2100 E488.34962
G1 F2220 X122.961 Y182.500 E488.89978
G0 F12000 X122.095 Y182.000
G1 F2220 X110.017 Y182.000 E489.40193
G0 F12000 X110.305 Y181.500
G1 F2220 X121.229 Y181.500 E489.85609
G0 F12000 X120.363 Y181.000
G1 F2220 X110.594 Y181.000 E490.26224
G0 F12000 X110.883 Y180.500
G1 F2220 X119.497 Y180.500 E490.62037
G0 F12000 X118.631 Y180.000
G1 F2220 X111.171 Y180.000 E490.93052
G0 F12000 X111.460 Y179.500
G1 F2220 X117.765 Y179.500 E491.19265
G0 F12000 X116.899 Y179.000
G1 F2220 X111.749 Y179.000 E491.40676
G0 F12000 X112.038 Y178.500
G1 F2220 X116.033 Y178.500 E491.57286
G0 F12000 X115.167 Y178.000
G1 F2220 X112.326 Y178.000 E491.69097
G0 F12000 X112.615 Y177.500
G1 F2220 X114.301 Y177.500 E491.76107
G0 F12000 X113.435 Y177.000
G1 F2220 X112.904 Y177.000 E491.78314
G1 F2100 E491.38314
G0 F12000 X160.223 Y215.000
G1 F2100 E491.78314
G1 F2220 X171.916 Y215.000 E492.26928
G0 F12000 X171.627 Y215.500
G1 F2220 X161.089 Y215.500 E492.70740
G0 F12000 X161.955 Y216.000
G1 F2220 X171.338 Y216.000 E493.09750
G0 F12000 X171.050 Y216.500
G1 F2220 X162.821 Y216.500 E493.43962
G0 F12000 X163.687 Y217.000
G1 F2220 X170.761 Y217.000 E493.73373
G0 F12000 X170.472 Y217.500
G1 F2220 X164.553 Y217.500 E493.97981
G0 F12000 X165.419 Y218.000
G1 F2220 X170.184 Y218.000 E494.17792
G0 F12000 X169.895 Y218.500
G1 F2220 X166.285 Y218.500 E494.32800
G0 F12000 X167.151 Y219.000
G1 F2220 X169.606 Y219.000 E494.43007
G0 F12000 X169.318 Y219.500
G1 F2220 X168.017 Y219.500 E494.48416
G0 F12000 X168.883 Y220.000
G1 F2220 X169.029 Y220.000 E494.49023
;LAYER:2
M106 S20
G0 F12000 X169.057 Y220.304 Z0.600
;TYPE:WALL-INNER
G1 F2700 X71.275 Y163.849 E499.18445
G1 X74.635 Y162.948 E499.32907
G1 X109.269 Y182.944 E500.99175
G1 X112.972 Y176.530 E501.29966
G1 X165.447 Y206.828 E503.81885
G1 X195.744 Y154.351 E506.33810
G1 X204.096 Y159.173 E506.73905
G1 X225.210 Y122.602 E508.49470
G1 X225.512 Y122.521 E508.50770
G1 X169.057 Y220.304 E513.20196
G0 F12000 X169.240 Y220.987
;TYPE:WALL-OUTER
G1 F2700 X69.980 Y163.678 E517.96714
G1 X74.706 Y162.411 E518.17057
G1 X109.086 Y182.261 E519.82106
G1 X112.789 Y175.847 E520.12897
G1 X165.264 Y206.145 E522.64816
G1 X195.561 Y153.668 E525.16741
G1 X203.913 Y158.490 E525.56836
G1 X224.881 Y122.173 E527.31183
G1 X226.548 Y121.726 E527.38359
G1 X169.240 Y220.987 E532.14879
G0 F12000 X169.000 Y220.051
;TYPE:SKIN
G1 F2700 X169.000 Y201.025 E532.93980
G0 F12000 X168.500 Y201.891
G1 F2700 X168.500 Y219.779 E533.68349
G0 F12000 X168.000 Y219.491
G1 F2700 X168.000 Y202.757 E534.37921
G0 F12000 X167.500 Y203.623
G1 F2700 X167.500 Y219.202 E535.02691
G0 F12000 X167.000 Y218.913
G1 F2700 X167.000 Y204.489 E535.62659
G0 F12000 X166.500 Y205.355
G1 F2700 X166.500 Y218.625 E536.17830
G0 F12000 X166.000 Y218.336
G1 F2700 X166.000 Y206.221 E536.68198
G0 F12000 X165.500 Y207.061
G1 F2700 X165.500 Y218.047 E537.13872
G0 F12000 X165.000 Y217.759
G1 F2700 X165.000 Y206.772 E537.59551
G0 F12000 X164.500 Y206.483
G1 F2700 X164.500 Y217.470 E538.05230
G0 F12000 X164.000 Y217.181
G1 F2700 X164.000 Y206.195 E538.50904
G0 F12000 X163.500 Y205.906
G1 F2700 X163.500 Y216.893 E538.96583
G0 F12000 X163.000 Y216.604
G1 F2700 X163.000 Y205.617 E539.42261
G0 F12000 X162.500 Y205.328
G1 F2700 X162.500 Y216.315 E539.87940
G0 F12000 X162.000 Y216.027
G1 F2700 X162.000 Y205.040 E540.33619
G0 F12000 X161.500 Y204.751
G1 F2700 X161.500 Y215.738 E540.79297
G0 F12000 X161.000 Y215.449
G1 F2700 X161.000 Y204.462 E541.24976
G0 F12000 X160.500 Y204.174
G1 F2700 X160.500 Y215.161 E541.70655
G0 F12000 X160.000 Y214.872
G1 F2700 X160.000 Y203.885 E542.16333
G1 F2100 E541.76333
G0 F12000 X169.500 Y200.159
G1 F2100 E542.16333
G1 F2700 X169.500 Y219.185 E542.95434
G0 F12000 X170.000 Y218.319
G1 F2700 X170.000 Y199.293 E543.74535
G0 F12000 X170.500 Y198.427
G1 F2700 X170.500 Y217.453 E544.53636
G0 F12000 X171.000 Y216.587
G1 F2700 X171.000 Y197.561 E545.32737
G0 F12000 X171.500 Y196.695
G1 F2700 X171.500 Y215.721 E546.11838
G0 F12000 X172.000 Y214.855
G1 F2700 X172.000 Y195.829 E546.90939
G0 F12000 X172.500 Y194.963
G1 F2700 X172.500 Y213.989 E547.70040
G0 F12000 X173.000 Y213.123
G1 F2700 X173.000 Y194.097 E548.49141
G0 F12000 X173.500 Y193.231
G1 F2700 X173.500 Y212.257 E549.28241
G0 F12000 X174.000 Y211.391
G1 F2700 X174.000 Y192.365 E550.07342
G0 F12000 X174.500 Y191.499
G1 F2700 X174.500 Y210.525 E550.86443
G0 F12000 X175.000 Y209.659
G1 F2700 X175.000 Y190.633 E551.65544
G0 F12000 X175.500 Y189.767
G1 F2700 X175.500 Y208.793 E552.44645
G0 F12000 X176.000 Y207.926
G1 F2700 X176.000 Y188.901 E553.23742
G0 F12000 X176.500 Y188.035
G1 F2700 X176.500 Y207.060 E554.02839
G0 F12000 X177.000 Y206.194
G1 F2700 X177.000 Y187.169 E554.81935
G0 F12000 X177.500 Y186.303
G1 F2700 X177.500 Y205.328 E555.61032
G0 F12000 X178.000 Y204.462
G1 F2700 X178.000 Y185.437 E556.40129
G0 F12000 X178.500 Y184.571
G1 F2700 X178.500 Y203.596 E557.19226
G0 F12000 X179.000 Y202.730
G1 F2700 X179.000 Y183.705 E557.98322
G0 F12000 X179.500 Y182.839
G1 F2700 X179.500 Y201.864 E558.77419
G0 F12000 X180.000 Y200.998
G1 F2700 X180.000 Y181.973 E559.56516
G0 F12000 X180.500 Y181.106
G1 F2700 X180.500 Y200.132 E560.35617
G0 F12000 X181.000 Y199.266
G1 F2700 X181.000 Y180.240 E561.14718
G0 F12000 X181.500 Y179.374
G1 F2700 X181.500 Y198.400 E561.93819
G0 F12000 X182.000 Y197.534
G1 F2700 X182.000 Y178.508 E562.72920
G0 F12000 X182.500 Y177.642
G1 F2700 X182.500 Y196.668 E563.52021
G0 F12000 X183.000 Y195.802
G1 F2700 X183.000 Y176.776 E564.31121
G0 F12000 X183.500 Y175.910
G1 F2700 X183.500 Y194.936 E565.10222
G0 F12000 X184.000 Y194.070
G1 F2700 X184.000 Y175.044 E565.89323
G0 F12000 X184.500 Y174.178
G1 F2700 X184.500 Y193.204 E566.68424
G0 F12000 X185.000 Y192.338
G1 F2700 X185.000 Y173.312 E567.47525
G0 F12000 X185.500 Y172.446
G1 F2700 X185.500 Y191.472 E568.26626
G0 F12000 X186.000 Y190.606
G1 F2700 X186.000 Y171.580 E569.05727
G0 F12000 X186.500 Y170.714
G1 F2700 X186.500 Y189.740 E569.84828
G0 F12000 X187.000 Y188.874
G1 F2700 X187.000 Y169.848 E570.63929
G0 F12000 X187.500 Y168.982
G1 F2700 X187.500 Y188.008 E571.43030
G0 F12000 X188.000 Y187.142
G1 F2700 X188.000 Y168.116 E572.22131
G0 F12000 X188.500 Y167.250
G1 F2700 X188.500 Y186.276 E573.01232
G0 F12000 X189.000 Y185.410
G1 F2700 X189.000 Y166.384 E573.80332
G0 F12000 X189.500 Y165.518
G1 F2700 X189.500 Y184.544 E574.59433
G0 F12000 X190.000 Y183.678
G1 F2700 X190.000 Y164.652 E575.38534
G0 F12000 X190.500 Y163.786
G1 F2700 X190.500 Y182.812 E576.17635
G0 F12000 X191.000 Y181.946
G1 F2700 X191.000 Y162.920 E576.96736
G0 F12000 X191.500 Y162.054
G1 F2700 X191.500 Y181.080 E577.75837
G0 F12000 X192.000 Y180.214
G1 F2700 X192.000 Y161.188 E578.54938
G0 F12000 X192.500 Y160.322
G1 F2700 X192.500 Y179.348 E579.34039
G0 F12000 X193.000 Y178.482
G1 F2700 X193.000 Y159.456 E580.13140
G0 F12000 X193.500 Y158.590
G1 F2700 X193.500 Y177.616 E580.92241
G0 F12000 X194.000 Y176.750
G1 F2700 X194.000 Y157.724 E581.71342
G0 F12000 X194.500 Y156.858
G1 F2700 X194.500 Y175.884 E582.50443
G0 F12000 X195.000 Y175.018
G1 F2700 X195.000 Y155.992 E583.29543
G0 F12000 X195.500 Y155.126
G1 F2700 X195.500 Y174.152 E584.08644
G0 F12000 X196.000 Y173.286
G1 F2700 X196.000 Y154.702 E584.85908
G0 F12000 X196.500 Y154.991
G1 F2700 X196.500 Y172.420 E585.58369
G0 F12000 X197.000 Y171.554
G1 F2700 X197.000 Y155.279 E586.26033
G0 F12000 X197.500 Y155.568
G1 F2700 X197.500 Y170.688 E586.88894
G0 F12000 X198.000 Y169.822
G1 F2700 X198.000 Y155.857 E587.46954
G0 F12000 X198.500 Y156.145
G1 F2700 X198.500 Y168.956 E588.00216
G0 F12000 X199.000 Y168.090
G1 F2700 X199.000 Y156.434 E588.48676
G0 F12000 X199.500 Y156.723
G1 F2700 X199.500 Y167.224 E588.92334
G0 F12000 X200.000 Y166.358
G1 F2700 X200.000 Y157.012 E589.31190
G0 F12000 X200.500 Y157.300
G1 F2700 X200.500 Y165.492 E589.65249
G0 F12000 X201.000 Y164.626
G1 F2700 X201.000 Y157.589 E589.94505
G0 F12000 X201.500 Y157.878
G1 F2700 X201.500 Y163.760 E590.18960
G0 F12000 X202.000 Y162.894
G1 F2700 X202.000 Y158.166 E590.38616
G0 F12000 X202.500 Y158.455
G1 F2700 X202.500 Y162.028 E590.53471
G0 F12000 X203.000 Y161.162
G1 F2700 X203.000 Y158.744 E590.63524
G0 F12000 X203.500 Y159.033
G1 F2700 X203.500 Y160.296 E590.68775
G0 F12000 X204.000 Y159.430
G1 F2700 X204.000 Y159.321 E590.69228
G1 F2100 E590.29228
G0 F12000 X159.500 Y203.596
G1 F2100 E590.69228
G1 F2700 X159.500 Y214.583 E591.14907
G0 F12000 X159.000 Y214.295
G1 F2700 X159.000 Y203.308 E591.60585
G0 F12000 X158.500 Y203.019
G1 F2700 X158.500 Y214.006 E592.06264
G0 F12000 X158.000 Y213.717
G1 F2700 X158.000 Y202.730 E592.51943
G0 F12000 X157.500 Y202.442
G1 F2700 X157.500 Y213.429 E592.97621
G0 F12000 X157.000 Y213.140
G1 F2700 X157.000 Y202.153 E593.43300
G0 F12000 X156.500 Y201.864
G1 F2700 X156.500 Y212.851 E593.88979
G0 F12000 X156.000 Y212.563
G1 F2700 X156.000 Y201.576 E594.34657
G0 F12000 X155.500 Y201.287
G1 F2700 X155.500 Y212.274 E594.80336
G0 F12000 X155.000 Y211.985
G1 F2700 X155.000 Y200.998 E595.26014
G0 F12000 X154.500 Y200.710
G1 F2700 X154.500 Y211.696 E595.71689
G0 F12000 X154.000 Y211.408
G1 F2700 X154.000 Y200.421 E596.17368
G0 F12000 X153.500 Y200.132
G1 F2700 X153.500 Y211.119 E596.63046
G0 F12000 X153.000 Y210.830
G1 F2700 X153.000 Y199.844 E597.08721
G0 F12000 X152.500 Y199.555
G1 F2700 X152.500 Y210.542 E597.54399
G0 F12000 X152.000 Y210.253
G1 F2700 X152.000 Y199.266 E598.00078
G0 F12000 X151.500 Y198.978
G1 F2700 X151.500 Y209.964 E598.45752
G0 F12000 X151.000 Y209.676
G1 F2700 X151.000 Y198.689 E598.91431
G0 F12000 X150.500 Y198.400
G1 F2700 X150.500 Y209.387 E599.37110
G0 F12000 X150.000 Y209.098
G1 F2700 X150.000 Y198.111 E599.82788
G0 F12000 X149.500 Y197.823
G1 F2700 X149.500 Y208.810 E600.28467
G0 F12000 X149.000 Y208.521
G1 F2700 X149.000 Y197.534 E600.74146
G0 F12000 X148.500 Y197.245
G1 F2700 X148.500 Y208.232 E601.19824
G0 F12000 X148.000 Y207.944
G1 F2700 X148.000 Y196.957 E601.65503
G0 F12000 X147.500 Y196.668
G1 F2700 X147.500 Y207.655 E602.11182
G0 F12000 X147.000 Y207.366
G1 F2700 X147.000 Y196.379 E602.56860
G0 F12000 X146.500 Y196.091
G1 F2700 X146.500 Y207.078 E603.02539
G0 F12000 X146.000 Y206.789
G1 F2700 X146.000 Y195.802 E603.48217
G0 F12000 X145.500 Y195.513
G1 F2700 X145.500 Y206.500 E603.93896
G0 F12000 X145.000 Y206.212
G1 F2700 X145.000 Y195.225 E604.39575
G0 F12000 X144.500 Y194.936
G1 F2700 X144.500 Y205.923 E604.85253
G0 F12000 X144.000 Y205.634
G1 F2700 X144.000 Y194.647 E605.30932
G0 F12000 X143.500 Y194.359
G1 F2700 X143.500 Y205.346 E605.76611
G0 F12000 X143.000 Y205.057
G1 F2700 X143.000 Y194.070 E606.22289
G0 F12000 X142.500 Y193.781
G1 F2700 X142.500 Y204.768 E606.67968
G0 F12000 X142.000 Y204.480
G1 F2700 X142.000 Y193.493 E607.13647
G0 F12000 X141.500 Y193.204
G1 F2700 X141.500 Y204.191 E607.59325
G0 F12000 X141.000 Y203.902
G1 F2700 X141.000 Y192.915 E608.05004
G0 F12000 X140.500 Y192.627
G1 F2700 X140.500 Y203.614 E608.50682
G0 F12000 X140.000 Y203.325
G1 F2700 X140.000 Y192.338 E608.96361
G0 F12000 X139.500 Y192.049
G1 F2700 X139.500 Y203.036 E609.42040
G0 F12000 X139.000 Y202.747
G1 F2700 X139.000 Y191.761 E609.87714
G0 F12000 X138.500 Y191.472
G1 F2700 X138.500 Y202.459 E610.33393
G0 F12000 X138.000 Y202.170
G1 F2700 X138.000 Y191.183 E610.79072
G0 F12000 X137.500 Y190.894
G1 F2700 X137.500 Y201.881 E611.24750
G0 F12000 X137.000 Y201.593
G1 F2700 X137.000 Y190.606 E611.70429
G0 F12000 X136.500 Y190.317
G1 F2700 X136.500 Y201.304 E612.16107
G0 F12000 X136.000 Y201.015
G1 F2700 X136.000 Y190.028 E612.61786
G0 F12000 X135.500 Y189.740
G1 F2700 X135.500 Y200.727 E613.07465
G0 F12000 X135.000 Y200.438
G1 F2700 X135.000 Y189.451 E613.53143
G0 F12000 X134.500 Y189.162
G1 F2700 X134.500 Y200.149 E613.98822
G0 F12000 X134.000 Y199.861
G1 F2700 X134.000 Y188.874 E614.44501
G0 F12000 X133.500 Y188.585
G1 F2700 X133.500 Y199.572 E614.90179
G0 F12000 X133.000 Y199.283
G1 F2700 X133.000 Y188.296 E615.35858
G0 F12000 X132.500 Y188.008
G1 F2700 X132.500 Y198.995 E615.81537
G0 F12000 X132.000 Y198.706
G1 F2700 X132.000 Y187.719 E616.27215
G0 F12000 X131.500 Y187.430
G1 F2700 X131.500 Y198.417 E616.72894
G0 F12000 X131.000 Y198.129
G1 F2700 X131.000 Y187.142 E617.18572
G0 F12000 X130.500 Y186.853
G1 F2700 X130.500 Y197.840 E617.64251
G0 F12000 X130.000 Y197.551
G1 F2700 X130.000 Y186.564 E618.09930
G0 F12000 X129.500 Y186.276
G1 F2700 X129.500 Y197.263 E618.55608
G0 F12000 X129.000 Y196.974
G1 F2700 X129.000 Y185.987 E619.01287
G0 F12000 X128.500 Y185.698
G1 F2700 X128.500 Y196.685 E619.46966
G0 F12000 X128.000 Y196.397
G1 F2700 X128.000 Y185.410 E619.92644
G0 F12000 X127.500 Y185.121
G1 F2700 X127.500 Y196.108 E620.38323
G0 F12000 X127.000 Y195.819
G1 F2700 X127.000 Y184.832 E620.84002
G0 F12000 X126.500 Y184.544
G1 F2700 X126.500 Y195.531 E621.29680
G0 F12000 X126.000 Y195.242
G1 F2700 X126.000 Y184.255 E621.75359
G0 F12000 X125.500 Y183.966
G1 F2700 X125.500 Y194.953 E622.21037
G0 F12000 X125.000 Y194.665
G1 F2700 X125.000 Y183.677 E622.66720
G0 F12000 X124.500 Y183.389
G1 F2700 X124.500 Y194.376 E623.12399
G0 F12000 X124.000 Y194.087
G1 F2700 X124.000 Y183.100 E623.58078
G0 F12000 X123.500 Y182.811
G1 F2700 X123.500 Y193.798 E624.03756
G0 F12000 X123.000 Y193.510
G1 F2700 X123.000 Y182.523 E624.49435
G0 F12000 X122.500 Y182.234
G1 F2700 X122.500 Y193.221 E624.95113
G0 F12000 X122.000 Y192.932
G1 F2700 X122.000 Y181.945 E625.40792
G0 F12000 X121.500 Y181.657
G1 F2700 X121.500 Y192.644 E625.86471
G0 F12000 X121.000 Y192.355
G1 F2700 X121.000 Y181.368 E626.32149
G0 F12000 X120.500 Y181.079
G1 F2700 X120.500 Y192.066 E626.77828
G0 F12000 X120.000 Y191.778
G1 F2700 X120.000 Y180.791 E627.23507
G0 F12000 X119.500 Y180.502
G1 F2700 X119.500 Y191.489 E627.69185
G0 F12000 X119.000 Y191.200
G1 F2700 X119.000 Y180.213 E628.14864
G0 F12000 X118.500 Y179.925
G1 F2700 X118.500 Y190.912 E628.60543
G0 F12000 X118.000 Y190.623
G1 F2700 X118.000 Y179.636 E629.06221
G0 F12000 X117.500 Y179.347
G1 F2700 X117.500 Y190.334 E629.51900
G0 F12000 X117.000 Y190.046
G1 F2700 X117.000 Y179.059 E629.97578
G0 F12000 X116.500 Y178.770
G1 F2700 X116.500 Y189.757 E630.43257
G0 F12000 X116.000 Y189.468
G1 F2700 X116.000 Y178.481 E630.88936
G0 F12000 X115.500 Y178.193
G1 F2700 X115.500 Y189.180 E631.34614
G0 F12000 X115.000 Y188.891
G1 F2700 X115.000 Y177.904 E631.80293
G0 F12000 X114.500 Y177.615
G1 F2700 X114.500 Y188.602 E632.25972
G0 F12000 X114.000 Y188.314
G1 F2700 X114.000 Y177.326 E632.71654
G0 F12000 X113.500 Y177.038
G1 F2700 X113.500 Y188.025 E633.17333
G0 F12000 X113.000 Y187.736
G1 F2700 X113.000 Y176.834 E633.62658
G0 F12000 X112.500 Y177.699
G1 F2700 X112.500 Y187.448 E634.03190
G0 F12000 X112.000 Y187.159
G1 F2700 X112.000 Y178.565 E634.38920
G0 F12000 X111.500 Y179.431
G1 F2700 X111.500 Y186.870 E634.69847
G0 F12000 X111.000 Y186.582
G1 F2700 X111.000 Y180.297 E634.95977
G0 F12000 X110.500 Y181.163
G1 F2700 X110.500 Y186.293 E635.17305
G0 F12000 X110.000 Y186.004
G1 F2700 X110.000 Y182.029 E635.33832
G0 F12000 X109.500 Y182.895
G1 F2700 X109.500 Y185.716 E635.45560
G0 F12000 X109.000 Y185.427
G1 F2700 X109.000 Y182.991 E635.55688
G0 F12000 X108.500 Y182.702
G1 F2700 X108.500 Y185.138 E635.65815
G0 F12000 X108.000 Y184.849
G1 F2700 X108.000 Y182.413 E635.75943
G0 F12000 X107.500 Y182.125
G1 F2700 X107.500 Y184.561 E635.86071
G0 F12000 X107.000 Y184.272
G1 F2700 X107.000 Y181.836 E635.96199
G0 F12000 X106.500 Y181.547
G1 F2700 X106.500 Y183.983 E636.06326
G0 F12000 X106.000 Y183.695
G1 F2700 X106.000 Y181.259 E636.16454
G0 F12000 X105.500 Y180.970
G1 F2700 X105.500 Y183.406 E636.26582
G0 F12000 X105.000 Y183.117
G1 F2700 X105.000 Y180.681 E636.36709
G0 F12000 X104.500 Y180.393
G1 F2700 X104.500 Y182.829 E636.46837
G0 F12000 X104.000 Y182.540
G1 F2700 X104.000 Y180.104 E636.56965
G0 F12000 X103.500 Y179.815
G1 F2700 X103.500 Y182.251 E636.67093
G0 F12000 X103.000 Y181.963
G1 F2700 X103.000 Y179.527 E636.77220
G0 F12000 X102.500 Y179.238
G1 F2700 X102.500 Y181.674 E636.87348
G0 F12000 X102.000 Y181.385
G1 F2700 X102.000 Y178.949 E636.97476
G0 F12000 X101.500 Y178.661
G1 F2700 X101.500 Y181.097 E637.07603
G0 F12000 X101.000 Y180.808
G1 F2700 X101.000 Y178.372 E637.17731
G0 F12000 X100.500 Y178.083
G1 F2700 X100.500 Y180.519 E637.27859
G0 F12000 X100.000 Y180.231
G1 F2700 X100.000 Y177.795 E637.37986
G0 F12000 X99.500 Y177.506
G1 F2700 X99.500 Y179.942 E637.48114
G0 F12000 X99.000 Y179.653
G1 F2700 X99.000 Y177.217 E637.58242
G0 F12000 X98.500 Y176.929
G1 F2700 X98.500 Y179.365 E637.68370
G0 F12000 X98.000 Y179.076
G1 F2700 X98.000 Y176.640 E637.78497
G0 F12000 X97.500 Y176.351
G1 F2700 X97.500 Y178.787 E637.88625
G0 F12000 X97.000 Y178.499
G1 F2700 X97.000 Y176.063 E637.98753
G0 F12000 X96.500 Y175.774
G1 F2700 X96.500 Y178.210 E638.08880
G0 F12000 X96.000 Y177.921
G1 F2700 X96.000 Y175.485 E638.19008
G0 F12000 X95.500 Y175.197
G1 F2700 X95.500 Y177.633 E638.29136
G0 F12000 X95.000 Y177.344
G1 F2700 X95.000 Y174.908 E638.39264
G0 F12000 X94.500 Y174.619
G1 F2700 X94.500 Y177.055 E638.49391
G0 F12000 X94.000 Y176.767
G1 F2700 X94.000 Y174.331 E638.59519
G0 F12000 X93.500 Y174.042
G1 F2700 X93.500 Y176.478 E638.69647
G0 F12000 X93.000 Y176.189
G1 F2700 X93.000 Y173.753 E638.79774
G0 F12000 X92.500 Y173.465
G1 F2700 X92.500 Y175.900 E638.89898
G0 F12000 X92.000 Y175.612
G1 F2700 X92.000 Y173.176 E639.00026
G0 F12000 X91.500 Y172.888
G1 F2700 X91.500 Y175.323 E639.10149
G0 F12000 X91.000 Y175.034
G1 F2700 X91.000 Y172.599 E639.20273
G0 F12000 X90.500 Y172.310
G1 F2700 X90.500 Y174.746 E639.30401
G0 F12000 X90.000 Y174.457
G1 F2700 X90.000 Y172.022 E639.40524
G0 F12000 X89.500 Y171.733
G1 F2700 X89.500 Y174.168 E639.50648
G0 F12000 X89.000 Y173.880
G1 F2700 X89.000 Y171.444 E639.60775
G0 F12000 X88.500 Y171.156
G1 F2700 X88.500 Y173.591 E639.70899
G0 F12000 X88.000 Y173.302
G1 F2700 X88.000 Y170.867 E639.81022
G0 F12000 X87.500 Y170.578
G1 F2700 X87.500 Y173.014 E639.91150
G0 F12000 X87.000 Y172.725
G1 F2700 X87.000 Y170.290 E640.01274
G0 F12000 X86.500 Y170.001
G1 F2700 X86.500 Y172.436 E640.11397
G0 F12000 X86.000 Y172.148
G1 F2700 X86.000 Y169.712 E640.21525
G0 F12000 X85.500 Y169.424
G1 F2700 X85.500 Y171.859 E640.31649
G0 F12000 X85.000 Y171.570
G1 F2700 X85.000 Y169.135 E640.41772
G0 F12000 X84.500 Y168.846
G1 F2700 X84.500 Y171.282 E640.51900
G0 F12000 X84.000 Y170.993
G1 F2700 X84.000 Y168.558 E640.62023
G0 F12000 X83.500 Y168.269
G1 F2700 X83.500 Y170.704 E640.72147
G0 F12000 X83.000 Y170.416
G1 F2700 X83.000 Y167.980 E640.82275
G0 F12000 X82.500 Y167.692
G1 F2700 X82.500 Y170.127 E640.92398
G0 F12000 X82.000 Y169.838
G1 F2700 X82.000 Y167.403 E641.02522
G0 F12000 X81.500 Y167.114
G1 F2700 X81.500 Y169.550 E641.12649
G0 F12000 X81.000 Y169.261
G1 F2700 X81.000 Y166.826 E641.22773
G0 F12000 X80.500 Y166.537
G1 F2700 X80.500 Y168.972 E641.32897
G0 F12000 X80.000 Y168.684
G1 F2700 X80.000 Y166.248 E641.43024
G0 F12000 X79.500 Y165.960
G1 F2700 X79.500 Y168.395 E641.53148
G0 F12000 X79.000 Y168.106
G1 F2700 X79.000 Y165.671 E641.63271
G0 F12000 X78.500 Y165.382
G1 F2700 X78.500 Y167.818 E641.73399
G0 F12000 X78.000 Y167.529
G1 F2700 X78.000 Y165.094 E641.83523
G0 F12000 X77.500 Y164.805
G1 F2700 X77.500 Y167.240 E641.93646
G0 F12000 X77.000 Y166.951
G1 F2700 X77.000 Y164.516 E642.03770
G0 F12000 X76.500 Y164.228
G1 F2700 X76.500 Y166.663 E642.13893
G0 F12000 X76.000 Y166.374
G1 F2700 X76.000 Y163.939 E642.24017
G0 F12000 X75.500 Y163.650
G1 F2700 X75.500 Y166.085 E642.34140
G0 F12000 X75.000 Y165.797
G1 F2700 X75.000 Y163.362 E642.44264
G0 F12000 X74.500 Y163.165
G1 F2700 X74.500 Y165.508 E642.54005
G0 F12000 X74.000 Y165.219
G1 F2700 X74.000 Y163.299 E642.61987
G0 F12000 X73.500 Y163.433
G1 F2700 X73.500 Y164.931 E642.68215
G0 F12000 X73.000 Y164.642
G1 F2700 X73.000 Y163.567 E642.72685
G0 F12000 X72.500 Y163.701
G1 F2700 X72.250 Y164.209 E642.75392
G1 X72.000 Y163.836 E642.77259
;LAYER:3
M106 S30
G0 F12000 X71.276 Y163.848 Z0.800
;TYPE:WALL-INNER
G1 F3120 X74.635 Y162.948 E642.91716
G1 X109.269 Y182.944 E644.57983
G1 X112.972 Y176.530 E644.88775
G1 X165.447 Y206.828 E647.40694
G1 X194.614 Y156.306 E649.83230
G1 X194.917 Y155.782 E649.85747
G1 X195.743 Y154.351 E649.92616
G1 X204.096 Y159.173 E650.32715
G1 X225.210 Y122.602 E652.08281
G1 X225.512 Y122.521 E652.09580
G1 X169.057 Y220.303 E656.79002
G1 X71.276 Y163.848 E661.48421
G0 F12000 X69.981 Y163.678
;TYPE:WALL-OUTER
G1 F3120 X74.706 Y162.411 E661.68759
G1 X109.086 Y182.261 E663.33808
G1 X112.789 Y175.847 E663.64599
G1 X165.264 Y206.145 E666.16519
G1 X195.561 Y153.668 E668.68443
G1 X203.913 Y158.490 E669.08538
G1 X224.881 Y122.173 E670.82886
G1 X226.548 Y121.726 E670.90061
G1 X169.240 Y220.986 E675.66578
G1 X69.981 Y163.678 E680.43091
G1 F2100 E680.03091
G0 F12000 X71.888 Y164.000
;TYPE:SKIN
G1 F2100 E680.43091
G1 F3120 X76.106 Y164.000 E680.60627
G0 F12000 X76.972 Y164.500
G1 F3120 X72.754 Y164.500 E680.78163
G0 F12000 X73.620 Y165.000
G1 F3120 X77.838 Y165.000 E680.95700
G0 F12000 X78.704 Y165.500
G1 F3120 X74.486 Y165.500 E681.13236
G0 F12000 X75.352 Y166.000
G1 F3120 X79.570 Y166.000 E681.30773
G0 F12000 X80.436 Y166.500
G1 F3120 X76.218 Y166.500 E681.48309
G0 F12000 X77.084 Y167.000
G1 F3120 X81.302 Y167.000 E681.65845
G0 F12000 X82.169 Y167.500
G1 F3120 X77.950 Y167.500 E681.83386
G0 F12000 X78.816 Y168.000
G1 F3120 X83.035 Y168.000 E682.00927
G0 F12000 X83.901 Y168.500
G1 F3120 X79.682 Y168.500 E682.18467
G1 F2100 E681.78467
G0 F12000 X75.240 Y163.500
G1 F2100 E682.18467
G1 F3120 X73.251 Y163.500 E682.26736
G1 F2100 E681.86736
G0 F12000 X80.548 Y169.000
G1 F2100 E682.26736
G1 F3120 X84.767 Y169.000 E682.44277
G0 F12000 X85.633 Y169.500
G1 F3120 X81.414 Y169.500 E682.61818
G0 F12000 X82.280 Y170.000
G1 F3120 X86.499 Y170.000 E682.79358
G0 F12000 X87.365 Y170.500
G1 F3120 X83.146 Y170.500 E682.96899
G0 F12000 X84.012 Y171.000
G1 F3120 X88.231 Y171.000 E683.14439
G0 F12000 X89.097 Y171.500
G1 F3120 X84.878 Y171.500 E683.31980
G0 F12000 X85.744 Y172.000
G1 F3120 X89.963 Y172.000 E683.49520
G0 F12000 X90.829 Y172.500
G1 F3120 X86.610 Y172.500 E683.67061
G0 F12000 X87.476 Y173.000
G1 F3120 X91.695 Y173.000 E683.84602
G0 F12000 X92.561 Y173.500
G1 F3120 X88.342 Y173.500 E684.02142
G0 F12000 X89.208 Y174.000
G1 F3120 X93.427 Y174.000 E684.19683
G0 F12000 X94.293 Y174.500
G1 F3120 X90.074 Y174.500 E684.37223
G0 F12000 X90.940 Y175.000
G1 F3120 X95.159 Y175.000 E684.54764
G0 F12000 X96.026 Y175.500
G1 F3120 X91.806 Y175.500 E684.72309
G0 F12000 X92.673 Y176.000
G1 F3120 X96.892 Y176.000 E684.89849
G0 F12000 X97.758 Y176.500
G1 F3120 X93.539 Y176.500 E685.07390
G0 F12000 X94.405 Y177.000
G1 F3120 X98.624 Y177.000 E685.24930
G0 F12000 X99.490 Y177.500
G1 F3120 X95.271 Y177.500 E685.42471
G0 F12000 X96.137 Y178.000
G1 F3120 X100.356 Y178.000 E685.60011
G0 F12000 X101.222 Y178.500
G1 F3120 X97.003 Y178.500 E685.77552
G0 F12000 X97.869 Y179.000
G1 F3120 X102.088 Y179.000 E685.95092
G0 F12000 X102.954 Y179.500
G1 F3120 X98.735 Y179.500 E686.12633
G0 F12000 X99.601 Y180.000
G1 F3120 X103.820 Y180.000 E686.30174
G0 F12000 X104.686 Y180.500
G1 F3120 X100.467 Y180.500 E686.47714
G0 F12000 X101.333 Y181.000
G1 F3120 X105.552 Y181.000 E686.65255
G0 F12000 X106.418 Y181.500
G1 F3120 X102.199 Y181.500 E686.82795
G0 F12000 X103.065 Y182.000
G1 F3120 X107.284 Y182.000 E687.00336
G0 F12000 X108.150 Y182.500
G1 F3120 X103.931 Y182.500 E687.17876
G0 F12000 X104.797 Y183.000
G1 F3120 X109.017 Y183.000 E687.35421
G0 F12000 X109.439 Y183.000
G1 F3120 X123.827 Y183.000 E687.95239
G0 F12000 X124.693 Y183.500
G1 F3120 X105.663 Y183.500 E688.74357
G0 F12000 X106.529 Y184.000
G1 F3120 X125.559 Y184.000 E689.53475
G0 F12000 X126.425 Y184.500
G1 F3120 X107.395 Y184.500 E690.32592
G0 F12000 X108.261 Y185.000
G1 F3120 X127.291 Y185.000 E691.11710
G0 F12000 X128.157 Y185.500
G1 F3120 X109.127 Y185.500 E691.90827
G0 F12000 X109.993 Y186.000
G1 F3120 X129.023 Y186.000 E692.69945
G0 F12000 X129.889 Y186.500
G1 F3120 X110.859 Y186.500 E693.49062
G0 F12000 X111.725 Y187.000
G1 F3120 X130.755 Y187.000 E694.28180
G0 F12000 X131.622 Y187.500
G1 F3120 X112.591 Y187.500 E695.07302
G0 F12000 X113.457 Y188.000
G1 F3120 X132.488 Y188.000 E695.86423
G0 F12000 X133.354 Y188.500
G1 F3120 X114.323 Y188.500 E696.65545
G0 F12000 X115.189 Y189.000
G1 F3120 X134.220 Y189.000 E697.44667
G0 F12000 X135.086 Y189.500
G1 F3120 X116.055 Y189.500 E698.23788
G0 F12000 X116.921 Y190.000
G1 F3120 X135.952 Y190.000 E699.02910
G0 F12000 X136.818 Y190.500
G1 F3120 X117.787 Y190.500 E699.82032
G0 F12000 X118.653 Y191.000
G1 F3120 X137.684 Y191.000 E700.61153
G0 F12000 X138.550 Y191.500
G1 F3120 X119.519 Y191.500 E701.40275
G1 F2100 E701.00275
G0 F12000 X122.961 Y182.500
G1 F2100 E701.40275
G1 F3120 X109.728 Y182.500 E701.95292
G0 F12000 X110.017 Y182.000
G1 F3120 X122.095 Y182.000 E702.45506
G0 F12000 X121.229 Y181.500
G1 F3120 X110.305 Y181.500 E702.90923
G0 F12000 X110.594 Y181.000
G1 F3120 X120.363 Y181.000 E703.31538
G1 F2100 E702.91538
G0 F12000 X120.385 Y192.000
G1 F2100 E703.31538
G1 F3120 X139.416 Y192.000 E704.10659
G0 F12000 X140.282 Y192.500
G1 F3120 X121.251 Y192.500 E704.89781
G0 F12000 X122.117 Y193.000
G1 F3120 X141.148 Y193.000 E705.68903
G0 F12000 X142.014 Y193.500
G1 F3120 X122.983 Y193.500 E706.48024
G0 F12000 X123.849 Y194.000
G1 F3120 X142.880 Y194.000 E707.27146
G0 F12000 X143.746 Y194.500
G1 F3120 X124.715 Y194.500 E708.06268
G0 F12000 X125.581 Y195.000
G1 F3120 X144.612 Y195.000 E708.85390
G0 F12000 X145.478 Y195.500
G1 F3120 X126.447 Y195.500 E709.64511
G0 F12000 X127.313 Y196.000
G1 F3120 X146.344 Y196.000 E710.43633
G0 F12000 X147.210 Y196.500
G1 F3120 X128.179 Y196.500 E711.22755
G0 F12000 X129.045 Y197.000
G1 F3120 X148.076 Y197.000 E712.01876
G0 F12000 X148.942 Y197.500
G1 F3120 X129.911 Y197.500 E712.80998
G0 F12000 X130.777 Y198.000
G1 F3120 X149.808 Y198.000 E713.60120
G0 F12000 X150.674 Y198.500
G1 F3120 X131.644 Y198.500 E714.39237
G0 F12000 X132.510 Y199.000
G1 F3120 X151.540 Y199.000 E715.18355
G0 F12000 X152.406 Y199.500
G1 F3120 X133.376 Y199.500 E715.97472
G0 F12000 X134.242 Y200.000
G1 F3120 X153.272 Y200.000 E716.76590
G0 F12000 X154.138 Y200.500
G1 F3120 X135.108 Y200.500 E717.55707
G0 F12000 X135.974 Y201.000
G1 F3120 X155.004 Y201.000 E718.34825
G0 F12000 X155.870 Y201.500
G1 F3120 X136.840 Y201.500 E719.13943
G0 F12000 X137.706 Y202.000
G1 F3120 X156.736 Y202.000 E719.93060
G0 F12000 X157.602 Y202.500
G1 F3120 X138.572 Y202.500 E720.72178
G0 F12000 X139.438 Y203.000
G1 F3120 X158.468 Y203.000 E721.51295
G0 F12000 X159.334 Y203.500
G1 F3120 X140.304 Y203.500 E722.30413
G0 F12000 X141.170 Y204.000
G1 F3120 X160.200 Y204.000 E723.09530
G0 F12000 X161.066 Y204.500
G1 F3120 X142.036 Y204.500 E723.88648
G0 F12000 X142.902 Y205.000
G1 F3120 X161.932 Y205.000 E724.67765
G0 F12000 X162.798 Y205.500
G1 F3120 X143.768 Y205.500 E725.46883
G0 F12000 X144.634 Y206.000
G1 F3120 X163.664 Y206.000 E726.26000
G0 F12000 X164.530 Y206.500
G1 F3120 X145.500 Y206.500 E727.05118
G0 F12000 X146.366 Y207.000
G1 F3120 X165.396 Y207.000 E727.84236
G0 F12000 X165.551 Y207.000
G1 F3120 X176.534 Y207.000 E728.29898
G0 F12000 X176.822 Y206.500
G1 F3120 X165.840 Y206.500 E728.75555
G0 F12000 X166.129 Y206.000
G1 F3120 X177.111 Y206.000 E729.21213
G0 F12000 X177.400 Y205.500
G1 F3120 X166.417 Y205.500 E729.66875
G0 F12000 X166.706 Y205.000
G1 F3120 X177.689 Y205.000 E730.12537
G0 F12000 X177.977 Y204.500
G1 F3120 X166.995 Y204.500 E730.58195
G0 F12000 X167.283 Y204.000
G1 F3120 X178.266 Y204.000 E731.03857
G0 F12000 X178.555 Y203.500
G1 F3120 X167.572 Y203.500 E731.49519
G0 F12000 X167.861 Y203.000
G1 F3120 X178.843 Y203.000 E731.95177
G0 F12000 X179.132 Y202.500
G1 F3120 X168.149 Y202.500 E732.40839
G0 F12000 X168.438 Y202.000
G1 F3120 X179.421 Y202.000 E732.86501
G0 F12000 X179.709 Y201.500
G1 F3120 X168.726 Y201.500 E733.32163
G0 F12000 X169.015 Y201.000
G1 F3120 X179.998 Y201.000 E733.77825
G0 F12000 X180.287 Y200.500
G1 F3120 X169.304 Y200.500 E734.23487
G0 F12000 X169.592 Y200.000
G1 F3120 X180.575 Y200.000 E734.69149
G0 F12000 X180.864 Y199.500
G1 F3120 X169.881 Y199.500 E735.14811
G0 F12000 X170.170 Y199.000
G1 F3120 X181.153 Y199.000 E735.60473
G0 F12000 X181.441 Y198.500
G1 F3120 X170.458 Y198.500 E736.06135
G0 F12000 X170.747 Y198.000
G1 F3120 X181.730 Y198.000 E736.51797
G0 F12000 X182.019 Y197.500
G1 F3120 X171.036 Y197.500 E736.97459
G0 F12000 X171.324 Y197.000
G1 F3120 X182.308 Y197.000 E737.43125
G0 F12000 X182.596 Y196.500
G1 F3120 X171.613 Y196.500 E737.88787
G0 F12000 X171.902 Y196.000
G1 F3120 X182.885 Y196.000 E738.34449
G0 F12000 X183.174 Y195.500
G1 F3120 X172.190 Y195.500 E738.80115
G0 F12000 X172.479 Y195.000
G1 F3120 X183.462 Y195.000 E739.25777
G0 F12000 X183.751 Y194.500
G1 F3120 X172.768 Y194.500 E739.71439
G0 F12000 X173.056 Y194.000
G1 F3120 X184.040 Y194.000 E740.17106
G0 F12000 X184.328 Y193.500
G1 F3120 X173.345 Y193.500 E740.62768
G0 F12000 X173.634 Y193.000
G1 F3120 X184.617 Y193.000 E741.08430
G0 F12000 X184.906 Y192.500
G1 F3120 X173.922 Y192.500 E741.54096
G0 F12000 X174.211 Y192.000
G1 F3120 X185.194 Y192.000 E741.99758
G0 F12000 X185.483 Y191.500
G1 F3120 X174.500 Y191.500 E742.45420
G0 F12000 X174.788 Y191.000
G1 F3120 X185.772 Y191.000 E742.91086
G0 F12000 X186.060 Y190.500
G1 F3120 X175.077 Y190.500 E743.36748
G0 F12000 X175.366 Y190.000
G1 F3120 X186.349 Y190.000 E743.82410
G0 F12000 X186.638 Y189.500
G1 F3120 X175.654 Y189.500 E744.28076
G0 F12000 X175.943 Y189.000
G1 F3120 X186.927 Y189.000 E744.73742
G0 F12000 X187.215 Y188.500
G1 F3120 X176.232 Y188.500 E745.19404
G0 F12000 X176.520 Y188.000
G1 F3120 X187.504 Y188.000 E745.65071
G0 F12000 X187.793 Y187.500
G1 F3120 X176.809 Y187.500 E746.10737
G0 F12000 X177.098 Y187.000
G1 F3120 X188.081 Y187.000 E746.56399
G0 F12000 X188.370 Y186.500
G1 F3120 X177.386 Y186.500 E747.02065
G0 F12000 X177.675 Y186.000
G1 F3120 X188.659 Y186.000 E747.47731
G0 F12000 X188.947 Y185.500
G1 F3120 X177.964 Y185.500 E747.93393
G0 F12000 X178.252 Y185.000
G1 F3120 X189.236 Y185.000 E748.39059
G0 F12000 X189.525 Y184.500
G1 F3120 X178.541 Y184.500 E748.84725
G0 F12000 X178.830 Y184.000
G1 F3120 X189.813 Y184.000 E749.30387
G0 F12000 X190.102 Y183.500
G1 F3120 X179.118 Y183.500 E749.76054
G0 F12000 X179.407 Y183.000
G1 F3120 X190.391 Y183.000 E750.21720
G0 F12000 X190.679 Y182.500
G1 F3120 X179.696 Y182.500 E750.67382
G0 F12000 X179.984 Y182.000
G1 F3120 X190.968 Y182.000 E751.13048
G0 F12000 X191.257 Y181.500
G1 F3120 X180.273 Y181.500 E751.58714
G0 F12000 X180.562 Y181.000
G1 F3120 X191.546 Y181.000 E752.04380
G0 F12000 X191.834 Y180.500
G1 F3120 X180.850 Y180.500 E752.50046
G0 F12000 X181.139 Y180.000
G1 F3120 X192.123 Y180.000 E752.95713
G0 F12000 X192.412 Y179.500
G1 F3120 X181.428 Y179.500 E753.41379
G0 F12000 X181.716 Y179.000
G1 F3120 X192.700 Y179.000 E753.87045
G0 F12000 X192.989 Y178.500
G1 F3120 X182.005 Y178.500 E754.32711
G0 F12000 X182.294 Y178.000
G1 F3120 X193.278 Y178.000 E754.78377
G0 F12000 X193.566 Y177.500
G1 F3120 X182.582 Y177.500 E755.24043
G0 F12000 X182.871 Y177.000
G1 F3120 X193.855 Y177.000 E755.69710
G0 F12000 X194.144 Y176.500
G1 F3120 X183.160 Y176.500 E756.15376
G0 F12000 X183.448 Y176.000
G1 F3120 X194.432 Y176.000 E756.61042
G0 F12000 X194.721 Y175.500
G1 F3120 X183.737 Y175.500 E757.06708
G0 F12000 X184.026 Y175.000
G1 F3120 X195.010 Y175.000 E757.52374
G0 F12000 X195.299 Y174.500
G1 F3120 X184.314 Y174.500 E757.98045
G0 F12000 X184.603 Y174.000
G1 F3120 X195.587 Y174.000 E758.43711
G0 F12000 X195.876 Y173.500
G1 F3120 X184.892 Y173.500 E758.89377
G0 F12000 X185.180 Y173.000
G1 F3120 X196.165 Y173.000 E759.35047
G0 F12000 X196.453 Y172.500
G1 F3120 X185.469 Y172.500 E759.80713
G0 F12000 X185.758 Y172.000
G1 F3120 X196.742 Y172.000 E760.26380
G0 F12000 X197.031 Y171.500
G1 F3120 X186.046 Y171.500 E760.72050
G0 F12000 X186.335 Y171.000
G1 F3120 X197.319 Y171.000 E761.17716
G0 F12000 X197.608 Y170.500
G1 F3120 X186.624 Y170.500 E761.63382
G0 F12000 X186.912 Y170.000
G1 F3120 X197.897 Y170.000 E762.09052
G0 F12000 X198.185 Y169.500
G1 F3120 X187.201 Y169.500 E762.54719
G0 F12000 X187.490 Y169.000
G1 F3120 X198.474 Y169.000 E763.00385
G0 F12000 X198.763 Y168.500
G1 F3120 X187.778 Y168.500 E763.46055
G0 F12000 X188.067 Y168.000
G1 F3120 X199.051 Y168.000 E763.91721
G0 F12000 X199.340 Y167.500
G1 F3120 X188.356 Y167.500 E764.37387
G0 F12000 X188.644 Y167.000
G1 F3120 X199.629 Y167.000 E764.83058
G0 F12000 X199.918 Y166.500
G1 F3120 X188.933 Y166.500 E765.28728
G0 F12000 X189.222 Y166.000
G1 F3120 X200.206 Y166.000 E765.74394
G0 F12000 X200.495 Y165.500
G1 F3120 X189.510 Y165.500 E766.20065
G0 F12000 X189.799 Y165.000
G1 F3120 X200.784 Y165.000 E766.65735
G0 F12000 X201.072 Y164.500
G1 F3120 X190.088 Y164.500 E767.11401
G0 F12000 X190.376 Y164.000
G1 F3120 X201.361 Y164.000 E767.57071
G0 F12000 X201.650 Y163.500
G1 F3120 X190.665 Y163.500 E768.02742
G0 F12000 X190.954 Y163.000
G1 F3120 X201.938 Y163.000 E768.48408
G0 F12000 X202.227 Y162.500
G1 F3120 X191.242 Y162.500 E768.94078
G0 F12000 X191.531 Y162.000
G1 F3120 X202.516 Y162.000 E769.39749
G0 F12000 X202.804 Y161.500
G1 F3120 X191.820 Y161.500 E769.85415
G0 F12000 X192.108 Y161.000
G1 F3120 X203.093 Y161.000 E770.31085
G0 F12000 X203.382 Y160.500
G1 F3120 X192.397 Y160.500 E770.76755
G0 F12000 X192.686 Y160.000
G1 F3120 X203.670 Y160.000 E771.22422
G0 F12000 X203.959 Y159.500
G1 F3120 X192.974 Y159.500 E771.68092
G0 F12000 X193.263 Y159.000
G1 F3120 X203.447 Y159.000 E772.10432
G0 F12000 X202.581 Y158.500
G1 F3120 X193.552 Y158.500 E772.47970
G0 F12000 X193.840 Y158.000
G1 F3120 X201.715 Y158.000 E772.80711
G0 F12000 X200.848 Y157.500
G1 F3120 X194.129 Y157.500 E773.08645
G0 F12000 X194.418 Y157.000
G1 F3120 X199.982 Y157.000 E773.31777
G0 F12000 X199.116 Y156.500
G1 F3120 X194.706 Y156.500 E773.50112
G0 F12000 X194.995 Y156.000
G1 F3120 X198.250 Y156.000 E773.63645
G0 F12000 X197.383 Y155.500
G1 F3120 X195.284 Y155.500 E773.72371
G0 F12000 X195.572 Y155.000
G1 F3120 X196.517 Y155.000 E773.76300
G1 F2100 E773.36300
G0 F12000 X176.245 Y207.500
G1 F2100 E773.76300
G1 F3120 X147.232 Y207.500 E774.96922
G0 F12000 X148.098 Y208.000
G1 F3120 X175.956 Y208.000 E776.12742
G0 F12000 X175.668 Y208.500
G1 F3120 X148.964 Y208.500 E777.23765
G0 F12000 X149.830 Y209.000
G1 F3120 X175.379 Y209.000 E778.29985
G0 F12000 X175.090 Y209.500
G1 F3120 X150.696 Y209.500 E779.31404
G0 F12000 X151.562 Y210.000
G1 F3120 X174.802 Y210.000 E780.28024
G0 F12000 X174.513 Y210.500
G1 F3120 X152.428 Y210.500 E781.19843
G0 F12000 X153.294 Y211.000
G1 F3120 X174.224 Y211.000 E782.06860
G0 F12000 X173.936 Y211.500
G1 F3120 X154.160 Y211.500 E782.89079
G0 F12000 X155.026 Y212.000
G1 F3120 X173.647 Y212.000 E783.66496
G0 F12000 X173.358 Y212.500
G1 F3120 X155.892 Y212.500 E784.39111
G0 F12000 X156.758 Y213.000
G1 F3120 X173.070 Y213.000 E785.06929
G0 F12000 X172.781 Y213.500
G1 F3120 X157.624 Y213.500 E785.69944
G0 F12000 X158.490 Y214.000
G1 F3120 X172.492 Y214.000 E786.28158
G0 F12000 X172.203 Y214.500
G1 F3120 X159.356 Y214.500 E786.81569
G0 F12000 X160.222 Y215.000
G1 F3120 X171.915 Y215.000 E787.30183
G0 F12000 X171.626 Y215.500
G1 F3120 X161.088 Y215.500 E787.73995
G0 F12000 X161.954 Y216.000
G1 F3120 X171.337 Y216.000 E788.13005
G0 F12000 X171.049 Y216.500
G1 F3120 X162.820 Y216.500 E788.47217
G0 F12000 X163.686 Y217.000
G1 F3120 X170.760 Y217.000 E788.76628
G0 F12000 X170.471 Y217.500
G1 F3120 X164.552 Y217.500 E789.01236
G0 F12000 X165.418 Y218.000
G1 F3120 X170.183 Y218.000 E789.21046
G0 F12000 X169.894 Y218.500
G1 F3120 X166.284 Y218.500 E789.36055
G0 F12000 X167.150 Y219.000
G1 F3120 X169.605 Y219.000 E789.46262
G0 F12000 X169.317 Y219.500
G1 F3120 X168.016 Y219.500 E789.51671
G0 F12000 X168.882 Y220.000
G1 F3120 X169.028 Y220.000 E789.52278
G1 F2100 E789.12278
G0 F12000 X119.497 Y180.500
G1 F2100 E789.52278
G1 F3120 X110.883 Y180.500 E789.88091
G0 F12000 X111.171 Y180.000
G1 F3120 X118.631 Y180.000 E790.19106
G0 F12000 X117.765 Y179.500
G1 F3120 X111.460 Y179.500 E790.45319
G0 F12000 X111.749 Y179.000
G1 F3120 X116.899 Y179.000 E790.66730
G0 F12000 X116.033 Y178.500
G1 F3120 X112.038 Y178.500 E790.83339
G0 F12000 X112.326 Y178.000
G1 F3120 X115.167 Y178.000 E790.95151
G0 F12000 X114.301 Y177.500
G1 F3120 X112.615 Y177.500 E791.02160
G0 F12000 X112.904 Y177.000
G1 F3120 X113.435 Y177.000 E791.04368
;LAYER:4
M106 S40
G0 F12000 X112.972 Y176.529 Z1.000
;TYPE:WALL-INNER
G1 F3600 X165.446 Y206.828 E793.56286
G1 X195.743 Y154.351 E796.08210
G1 X204.096 Y159.173 E796.48309
G1 X225.210 Y122.602 E798.23874
G1 X225.513 Y122.521 E798.25178
G1 X169.058 Y220.304 E802.94604
G1 X71.275 Y163.849 E807.64029
G1 X74.635 Y162.948 E807.78492
G1 X109.269 Y182.944 E809.44759
G1 X112.972 Y176.529 E809.75554
G0 F12000 X112.789 Y175.846
;TYPE:WALL-OUTER
G1 F3600 X165.263 Y206.145 E812.27472
G1 X195.560 Y153.668 E814.79396
G1 X203.913 Y158.490 E815.19495
G1 X224.881 Y122.173 E816.93842
G1 X226.550 Y121.726 E817.01026
G1 X169.241 Y220.987 E821.77548
G1 X69.980 Y163.678 E826.54071
G1 X74.706 Y162.411 E826.74413
G1 X109.086 Y182.261 E828.39462
G1 X112.789 Y175.846 E828.70257
G1 F2100 E828.30257
G0 F12000 X115.241 Y178.042
;TYPE:FILL
G1 F2100 E828.70257
G1 F3600 X115.241 Y189.030 E829.15940
G1 F2100 E828.75940
G0 F12000 X110.887 Y186.516
G1 F2100 E829.15940
G1 F3600 X120.404 Y181.022 E829.61626
G1 F2100 E829.21626
G0 F12000 X129.944 Y186.531
G1 F2100 E829.61626
G1 F3600 X129.944 Y197.519 E830.07309
G1 F2100 E829.67309
G0 F12000 X125.589 Y195.005
G1 F2100 E830.07309
G1 F3600 X135.106 Y189.511 E830.52996
G1 F2100 E830.12996
G0 F12000 X144.647 Y195.021
G1 F2100 E830.52996
G1 F3600 X144.647 Y206.007 E830.98670
G1 F2100 E830.58670
G0 F12000 X140.293 Y203.494
G1 F2100 E830.98670
G1 F3600 X149.809 Y198.000 E831.44354
G1 F2100 E831.04354
G0 F12000 X159.350 Y203.510
G1 F2100 E831.44354
G1 F3600 X159.350 Y214.496 E831.90028
G1 F2100 E831.50028
G0 F12000 X154.996 Y211.983
G1 F2100 E831.90028
G1 F3600 X164.512 Y206.489 E832.35711
G1 F2100 E831.95711
G0 F12000 X166.509 Y205.335
G1 F2100 E832.35711
G1 F3600 X182.988 Y195.821 E833.14822
G0 F12000 X182.348 Y196.931
G1 F3600 X174.108 Y192.174 E833.54378
G0 F12000 X174.053 Y192.271
G1 F3600 X174.053 Y211.300 E834.33492
G1 F2100 E833.93492
G0 F12000 X174.996 Y209.665
G1 F2100 E834.33492
G1 F3600 X166.757 Y204.908 E834.73045
G1 F2100 E834.33045
G0 F12000 X181.212 Y179.869
G1 F2100 E834.73045
G1 F3600 X197.691 Y170.355 E835.52155
G0 F12000 X197.051 Y171.465
G1 F3600 X188.811 Y166.708 E835.91712
G0 F12000 X188.756 Y166.805
G1 F3600 X188.756 Y185.835 E836.70830
G1 F2100 E836.30830
G0 F12000 X189.699 Y184.198
G1 F2100 E836.70830
G1 F3600 X181.460 Y179.441 E837.10383
G1 F2100 E836.70383
G0 F12000 X203.459 Y160.369
G1 F2100 E837.10383
G1 F3600 X203.459 Y159.008 E837.16041
G1 F2100 E836.76041
G0 F12000 X100.538 Y178.105
G1 F2100 E837.16041
G1 F3600 X100.538 Y180.541 E837.26169
G1 F2100 E836.86169
G0 F12000 X98.294 Y176.809
G1 F2100 E837.26169
G1 F3600 X96.184 Y178.028 E837.36300
G1 F2100 E836.96300
G0 F12000 X85.835 Y172.052
G1 F2100 E837.36300
G1 F3600 X85.835 Y169.617 E837.46424
G1 F2100 E837.06424
G0 F12000 X83.592 Y168.320
G1 F2100 E837.46424
G1 F3600 X81.481 Y169.539 E837.56559
;LAYER:5
M106 S51
G1 F2100 E837.16559
G0 F12000 X74.635 Y162.948 Z1.200
;TYPE:WALL-INNER
G1 F2100 E837.56559
G1 F3600 X109.269 Y182.944 E839.22826
G1 X112.972 Y176.530 E839.53617
G1 X165.447 Y206.827 E842.05534
G1 X195.743 Y154.351 E844.57453
G1 X204.096 Y159.173 E844.97552
G1 X225.210 Y122.602 E846.73117
G1 X225.512 Y122.521 E846.74417
G1 X169.057 Y220.303 E851.43839
G1 X71.276 Y163.848 E856.13257
G1 X74.635 Y162.948 E856.27715
G0 F12000 X74.706 Y162.411
;TYPE:WALL-OUTER
G1 F3600 X109.086 Y182.261 E857.92764
G1 X112.789 Y175.847 E858.23555
G1 X165.264 Y206.144 E860.75473
G1 X195.560 Y153.668 E863.27391
G1 X203.913 Y158.490 E863.67490
G1 X224.881 Y122.173 E865.41837
G1 X226.548 Y121.726 E865.49013
G1 X169.240 Y220.986 E870.25529
G1 X69.981 Y163.678 E875.02042
G1 X74.706 Y162.411 E875.22381
G1 F2100 E874.82381
G0 F12000 X81.622 Y169.619
;TYPE:FILL
G1 F2100 E875.22381
G1 F3600 X83.732 Y168.401 E875.32510
G1 F2100 E874.92510
G0 F12000 X85.695 Y169.536
G1 F2100 E875.32510
G1 F3600 X85.695 Y171.970 E875.42629
G1 F2100 E875.02629
G0 F12000 X96.325 Y178.108
G1 F2100 E875.42629
G1 F3600 X98.434 Y176.890 E875.52755
G1 F2100 E875.12755
G0 F12000 X100.398 Y178.025
G1 F2100 E875.52755
G1 F3600 X100.398 Y180.459 E875.62874
G1 F2100 E875.22874
G0 F12000 X111.028 Y186.597
G1 F2100 E875.62874
G1 F3600 X120.543 Y181.103 E876.08554
G1 F2100 E875.68554
G0 F12000 X129.804 Y186.451
G1 F2100 E876.08554
G1 F3600 X129.804 Y197.437 E876.54228
G1 F2100 E876.14228
G0 F12000 X125.730 Y195.086
G1 F2100 E876.54228
G1 F3600 X135.246 Y189.592 E876.99911
G1 F2100 E876.59911
G0 F12000 X144.507 Y194.939
G1 F2100 E876.99911
G1 F3600 X144.507 Y205.926 E877.45590
G1 F2100 E877.05590
G0 F12000 X140.433 Y203.575
G1 F2100 E877.45590
G1 F3600 X149.949 Y198.080 E877.91275
G1 F2100 E877.51275
G0 F12000 X159.210 Y203.428
G1 F2100 E877.91275
G1 F3600 X159.210 Y214.415 E878.36954
G1 F2100 E877.96954
G0 F12000 X155.136 Y212.064
G1 F2100 E878.36954
G1 F3600 X164.653 Y206.569 E878.82643
G1 F2100 E878.42643
G0 F12000 X166.370 Y205.578
G1 F2100 E878.82643
G1 F3600 X182.846 Y196.065 E879.61740
G0 F12000 X182.417 Y196.807
G1 F3600 X174.179 Y192.051 E880.01288
G0 F12000 X173.913 Y192.514
G1 F3600 X173.913 Y211.540 E880.80389
G1 F2100 E880.40389
G0 F12000 X175.065 Y209.541
G1 F2100 E880.80389
G1 F3600 X166.828 Y204.785 E881.19933
G1 F2100 E880.79933
G0 F12000 X181.073 Y180.111
G1 F2100 E881.19933
G1 F3600 X197.550 Y170.598 E881.99033
G0 F12000 X197.121 Y171.342
G1 F3600 X188.882 Y166.585 E882.38587
G0 F12000 X188.616 Y167.048
G1 F3600 X188.616 Y186.075 E883.17692
G1 F2100 E882.77692
G0 F12000 X189.769 Y184.075
G1 F2100 E883.17692
G1 F3600 X181.531 Y179.318 E883.57242
G1 F2100 E883.17242
G0 F12000 X203.319 Y160.610
G1 F2100 E883.57242
G1 F3600 X203.319 Y158.927 E883.64239
G1 F2100 E883.24239
G0 F12000 X115.101 Y177.962
G1 F2100 E883.64239
G1 F3600 X115.101 Y188.948 E884.09913
;LAYER:6
M106 S63
G1 F2100 E883.69913
G0 F12000 X109.269 Y182.944 Z1.400
;TYPE:WALL-INNER
G1 F2100 E884.09913
G1 F3600 X112.972 Y176.530 E884.40704
G1 X165.447 Y206.827 E886.92622
G1 X195.744 Y154.351 E889.44542
G1 X204.096 Y159.173 E889.84638
G1 X225.210 Y122.602 E891.60203
G1 X225.512 Y122.521 E891.61503
G1 X169.057 Y220.304 E896.30928
G1 X71.275 Y163.849 E901.00350
G1 X74.635 Y162.948 E901.14813
G1 X109.269 Y182.944 E902.81080
G0 F12000 X109.086 Y182.261
;TYPE:WALL-OUTER
G1 F3600 X112.789 Y175.847 E903.11872
G1 X165.264 Y206.144 E905.63789
G1 X195.561 Y153.668 E908.15710
G1 X203.913 Y158.490 E908.55805
G1 X224.881 Y122.173 E910.30152
G1 X226.548 Y121.726 E910.37328
G1 X169.240 Y220.987 E915.13848
G1 X69.980 Y163.678 E919.90367
G1 X74.706 Y162.411 E920.10709
G1 X109.086 Y182.261 E921.75758
G1 F2100 E921.35758
G0 F12000 X111.170 Y186.680
;TYPE:FILL
G1 F2100 E921.75758
G1 F3600 X120.686 Y181.186 E922.21441
G1 F2100 E921.81441
G0 F12000 X129.661 Y186.368
G1 F2100 E922.21441
G1 F3600 X129.661 Y197.356 E922.67124
G1 F2100 E922.27124
G0 F12000 X125.872 Y195.169
G1 F2100 E922.67124
G1 F3600 X135.389 Y189.675 E923.12811
G1 F2100 E922.72811
G0 F12000 X144.364 Y194.857
G1 F2100 E923.12811
G1 F3600 X144.364 Y205.844 E923.58489
G1 F2100 E923.18489
G0 F12000 X140.575 Y203.658
G1 F2100 E923.58489
G1 F3600 X150.092 Y198.163 E924.04178
G1 F2100 E923.64178
G0 F12000 X159.067 Y203.346
G1 F2100 E924.04178
G1 F3600 X159.067 Y214.333 E924.49857
G1 F2100 E924.09857
G0 F12000 X155.277 Y212.147
G1 F2100 E924.49857
G1 F3600 X164.795 Y206.652 E924.95549
G1 F2100 E924.55549
G0 F12000 X166.228 Y205.825
G1 F2100 E924.95549
G1 F3600 X182.704 Y196.312 E925.74647
G0 F12000 X182.488 Y196.686
G1 F3600 X174.251 Y191.930 E926.14191
G0 F12000 X173.770 Y192.762
G1 F3600 X173.770 Y211.789 E926.93296
G1 F2100 E926.53296
G0 F12000 X175.137 Y209.419
G1 F2100 E926.93296
G1 F3600 X166.899 Y204.663 E927.32843
G1 F2100 E926.92843
G0 F12000 X180.931 Y180.358
G1 F2100 E927.32843
G1 F3600 X197.406 Y170.846 E928.11935
G0 F12000 X197.191 Y171.219
G1 F3600 X188.954 Y166.463 E928.51479
G0 F12000 X188.473 Y167.297
G1 F3600 X188.473 Y186.323 E929.30580
G1 F2100 E928.90580
G0 F12000 X189.840 Y183.953
G1 F2100 E929.30580
G1 F3600 X181.602 Y179.197 E929.70128
G1 F2100 E929.30128
G0 F12000 X195.635 Y154.892
G1 F2100 E929.70128
G1 F3600 X195.983 Y154.691 E929.71798
G0 F12000 X203.176 Y158.846
G1 F3600 X203.176 Y160.857 E929.80159
G1 F2100 E929.40159
G0 F12000 X114.958 Y177.880
G1 F2100 E929.80159
G1 F3600 X114.958 Y188.867 E930.25838
G1 F2100 E929.85838
G0 F12000 X100.255 Y180.378
G1 F2100 E930.25838
G1 F3600 X100.255 Y177.942 E930.35965
G1 F2100 E929.95965
G0 F12000 X98.578 Y176.972
G1 F2100 E930.35965
G1 F3600 X96.466 Y178.191 E930.46104
G1 F2100 E930.06104
G0 F12000 X85.552 Y171.889
G1 F2100 E930.46104
G1 F3600 X85.552 Y169.454 E930.56227
G1 F2100 E930.16227
G0 F12000 X83.875 Y168.484
G1 F2100 E930.56227
G1 F3600 X81.763 Y169.703 E930.66366
;LAYER:7
M106 S73
G1 F2100 E930.26366
G0 F12000 X74.635 Y162.948 Z1.600
;TYPE:WALL-INNER
G1 F2100 E930.66366
G1 F3600 X109.269 Y182.944 E932.32633
G1 X112.972 Y176.530 E932.63424
G1 X165.447 Y206.827 E935.15341
G1 X195.744 Y154.351 E937.67262
G1 X204.096 Y159.173 E938.07357
G1 X225.210 Y122.602 E939.82923
G1 X225.512 Y122.521 E939.84223
G1 X169.057 Y220.303 E944.53644
G1 X71.276 Y163.848 E949.23063
G1 X74.635 Y162.948 E949.37520
G0 F12000 X74.706 Y162.411
;TYPE:WALL-OUTER
G1 F3600 X109.086 Y182.261 E951.02570
G1 X112.789 Y175.847 E951.33361
G1 X165.264 Y206.144 E953.85278
G1 X195.561 Y153.668 E956.37199
G1 X203.913 Y158.490 E956.77294
G1 X224.881 Y122.173 E958.51641
G1 X226.548 Y121.726 E958.58817
G1 X169.240 Y220.986 E963.35333
G1 X69.981 Y163.678 E968.11847
G1 X74.706 Y162.411 E968.32185
G1 F2100 E967.92185
G0 F12000 X81.905 Y169.782
;TYPE:FILL
G1 F2100 E968.32185
G1 F3600 X84.015 Y168.564 E968.42314
G1 F2100 E968.02314
G0 F12000 X85.412 Y169.373
G1 F2100 E968.42314
G1 F3600 X85.412 Y171.807 E968.52433
G1 F2100 E968.12433
G0 F12000 X96.607 Y178.271
G1 F2100 E968.52433
G1 F3600 X98.718 Y177.053 E968.62566
G1 F2100 E968.22566
G0 F12000 X100.115 Y177.861
G1 F2100 E968.62566
G1 F3600 X100.115 Y180.296 E968.72689
G1 F2100 E968.32689
G0 F12000 X111.311 Y186.760
G1 F2100 E968.72689
G1 F3600 X120.826 Y181.267 E969.18367
G1 F2100 E968.78367
G0 F12000 X129.521 Y186.287
G1 F2100 E969.18367
G1 F3600 X129.521 Y197.274 E969.64045
G1 F2100 E969.24045
G0 F12000 X126.013 Y195.249
G1 F2100 E969.64045
G1 F3600 X135.529 Y189.755 E970.09729
G1 F2100 E969.69729
G0 F12000 X144.224 Y194.776
G1 F2100 E970.09729
G1 F3600 X144.224 Y205.762 E970.55403
G1 F2100 E970.15403
G0 F12000 X140.716 Y203.738
G1 F2100 E970.55403
G1 F3600 X150.232 Y198.244 E971.01086
G1 F2100 E970.61086
G0 F12000 X158.927 Y203.265
G1 F2100 E971.01086
G1 F3600 X158.927 Y214.251 E971.46761
G1 F2100 E971.06761
G0 F12000 X155.419 Y212.227
G1 F2100 E971.46761
G1 F3600 X164.935 Y206.733 E971.92444
G0 F12000 X166.087 Y206.068
G1 F3600 X182.562 Y196.556 E972.71536
G0 F12000 X182.558 Y196.563
G1 F3600 X174.321 Y191.808 E973.11078
G0 F12000 X173.630 Y193.005
G1 F3600 X173.630 Y212.031 E973.90179
G1 F2100 E973.50179
G0 F12000 X175.206 Y209.296
G1 F2100 E973.90179
G1 F3600 X166.970 Y204.541 E974.29717
G1 F2100 E973.89717
G0 F12000 X180.791 Y180.601
G1 F2100 E974.29717
G1 F3600 X197.266 Y171.089 E975.08809
G0 F12000 X197.261 Y171.097
G1 F3600 X189.024 Y166.341 E975.48353
G0 F12000 X188.333 Y167.539
G1 F3600 X188.333 Y186.565 E976.27453
G1 F2100 E975.87453
G0 F12000 X189.909 Y183.830
G1 F2100 E976.27453
G1 F3600 X181.673 Y179.075 E976.66992
G1 F2100 E976.26992
G0 F12000 X195.495 Y155.134
G1 F2100 E976.66992
G1 F3600 X196.123 Y154.771 E976.70008
G1 F2100 E976.30008
G0 F12000 X203.036 Y158.765
G1 F2100 E976.70008
G1 F3600 X203.036 Y161.100 E976.79715
G1 F2100 E976.39715
G0 F12000 X114.818 Y177.799
G1 F2100 E976.79715
G1 F3600 X114.818 Y188.785 E977.25390
;LAYER:8
M106 S84
G1 F2100 E976.85390
G0 F12000 X109.269 Y182.944 Z1.800
;TYPE:WALL-INNER
G1 F2100 E977.25390
G1 F3600 X112.972 Y176.530 E977.56181
G1 X165.447 Y206.827 E980.08098
G1 X195.744 Y154.350 E982.60023
G1 X204.095 Y159.173 E983.00116
G1 X225.210 Y122.602 E984.75684
G1 X225.512 Y122.521 E984.76984
G1 X169.057 Y220.304 E989.46409
G1 X71.275 Y163.849 E994.15831
G1 X74.635 Y162.948 E994.30294
G1 X109.269 Y182.944 E995.96561
G0 F12000 X109.086 Y182.261
;TYPE:WALL-OUTER
G1 F3600 X112.789 Y175.847 E996.27352
G1 X165.264 Y206.144 E998.79270
G1 X195.561 Y153.667 E1001.31194
G1 X203.912 Y158.490 E1001.71288
G1 X224.881 Y122.173 E1003.45637
G1 X226.548 Y121.726 E1003.52813
G1 X169.240 Y220.987 E1008.29333
G1 X69.980 Y163.678 E1013.05852
G1 X74.706 Y162.411 E1013.26194
G1 X109.086 Y182.261 E1014.91243
G1 F2100 E1014.51243
G0 F12000 X111.452 Y186.843
;TYPE:FILL
G1 F2100 E1014.91243
G1 F3600 X120.969 Y181.349 E1015.36930
G1 F2100 E1014.96930
G0 F12000 X129.378 Y186.205
G1 F2100 E1015.36930
G1 F3600 X129.378 Y197.192 E1015.82608
G1 F2100 E1015.42608
G0 F12000 X126.156 Y195.332
G1 F2100 E1015.82608
G1 F3600 X135.672 Y189.838 E1016.28292
G1 F2100 E1015.88292
G0 F12000 X144.081 Y194.693
G1 F2100 E1016.28292
G1 F3600 X144.081 Y205.681 E1016.73974
G1 F2100 E1016.33974
G0 F12000 X140.858 Y203.821
G1 F2100 E1016.73974
G1 F3600 X150.375 Y198.326 E1017.19663
G1 F2100 E1016.79663
G0 F12000 X158.784 Y203.182
G1 F2100 E1017.19663
G1 F3600 X158.784 Y214.170 E1017.65346
G1 F2100 E1017.25346
G0 F12000 X155.561 Y212.310
G1 F2100 E1017.65346
G1 F3600 X165.079 Y206.815 E1018.11038
G0 F12000 X165.944 Y206.315
G1 F3600 X182.421 Y196.802 E1018.90139
G0 F12000 X182.631 Y196.439
G1 F3600 X174.392 Y191.682 E1019.29693
G1 F2100 E1018.89693
G0 F12000 X173.487 Y193.252
G1 F2100 E1019.29693
G1 F3600 X173.487 Y212.279 E1020.08798
G1 F2100 E1019.68798
G0 F12000 X175.279 Y209.172
G1 F2100 E1020.08798
G1 F3600 X167.041 Y204.416 E1020.48345
G1 F2100 E1020.08345
G0 F12000 X180.646 Y180.849
G1 F2100 E1020.48345
G1 F3600 X197.124 Y171.336 E1021.27450
G0 F12000 X197.334 Y170.973
G1 F3600 X189.095 Y166.216 E1021.67003
G1 F2100 E1021.27003
G0 F12000 X188.190 Y167.785
G1 F2100 E1021.67003
G1 F3600 X188.190 Y186.814 E1022.46117
G1 F2100 E1022.06117
G0 F12000 X189.982 Y183.706
G1 F2100 E1022.46117
G1 F3600 X181.744 Y178.949 E1022.85666
G1 F2100 E1022.45666
G0 F12000 X195.349 Y155.383
G1 F2100 E1022.85666
G1 F3600 X196.267 Y154.853 E1022.90073
G1 F2100 E1022.50073
G0 F12000 X202.893 Y158.683
G1 F2100 E1022.90073
G1 F3600 X202.893 Y161.348 E1023.01153
G1 F2100 E1022.61153
G0 F12000 X114.675 Y177.716
G1 F2100 E1023.01153
G1 F3600 X114.675 Y188.703 E1023.46832
G1 F2100 E1023.06832
G0 F12000 X99.972 Y180.214
G1 F2100 E1023.46832
G1 F3600 X99.972 Y177.779 E1023.56955
G0 F12000 X98.860 Y177.136
G1 F3600 X96.749 Y178.355 E1023.67090
G1 F2100 E1023.27090
G0 F12000 X85.269 Y171.726
G1 F2100 E1023.67090
G1 F3600 X85.269 Y169.290 E1023.77218
G0 F12000 X84.158 Y168.647
G1 F3600 X82.047 Y169.866 E1023.87352
;LAYER:9
M106 S94
G1 F2100 E1023.47352
G0 F12000 X74.635 Y162.948 Z2.000
;TYPE:WALL-INNER
G1 F2100 E1023.87352
G1 F3600 X109.269 Y182.944 E1025.53619
G1 X112.972 Y176.530 E1025.84411
G1 X157.692 Y202.350 E1027.99099
G1 X158.289 Y202.695 E1028.01966
G1 X161.076 Y204.304 E1028.15345
G1 X161.583 Y204.597 E1028.17780
G1 X165.447 Y206.827 E1028.36328
G1 X195.744 Y154.350 E1030.88252
G1 X204.095 Y159.173 E1031.28346
G1 X225.210 Y122.602 E1033.03914
G1 X225.512 Y122.521 E1033.05214
G1 X169.057 Y220.303 E1037.74635
G1 X71.276 Y163.848 E1042.44054
G1 X74.635 Y162.948 E1042.58511
G0 F12000 X74.706 Y162.411
;TYPE:WALL-OUTER
G1 F3600 X109.086 Y182.261 E1044.23560
G1 X112.789 Y175.847 E1044.54352
G1 X165.264 Y206.145 E1047.06271
G1 X195.561 Y153.667 E1049.58199
G1 X203.912 Y158.490 E1049.98293
G1 X224.881 Y122.173 E1051.72642
G1 X226.548 Y121.726 E1051.79818
G1 X169.240 Y220.986 E1056.56334
G1 X69.981 Y163.678 E1061.32847
G1 X74.706 Y162.411 E1061.53186
G1 F2100 E1061.13186
G0 F12000 X82.189 Y169.946
;TYPE:FILL
G1 F2100 E1061.53186
G1 F3600 X84.299 Y168.728 E1061.63315
G0 F12000 X85.128 Y169.209
G1 F3600 X85.128 Y171.643 E1061.73434
G1 F2100 E1061.33434
G0 F12000 X96.892 Y178.435
G1 F2100 E1061.73434
G1 F3600 X99.002 Y177.217 E1061.83563
G0 F12000 X99.831 Y177.697
G1 F3600 X99.831 Y180.132 E1061.93687
G1 F2100 E1061.53687
G0 F12000 X111.595 Y186.924
G1 F2100 E1061.93687
G1 F3600 X121.110 Y181.431 E1062.39364
G1 F2100 E1061.99364
G0 F12000 X129.237 Y186.123
G1 F2100 E1062.39364
G1 F3600 X129.237 Y197.110 E1062.85043
G1 F2100 E1062.45043
G0 F12000 X126.297 Y195.413
G1 F2100 E1062.85043
G1 F3600 X135.813 Y189.919 E1063.30726
G1 F2100 E1062.90726
G0 F12000 X143.940 Y194.612
G1 F2100 E1063.30726
G1 F3600 X143.940 Y205.598 E1063.76400
G1 F2100 E1063.36400
G0 F12000 X141.000 Y203.902
G1 F2100 E1063.76400
G1 F3600 X150.516 Y198.408 E1064.22084
G1 F2100 E1063.82084
G0 F12000 X158.643 Y203.101
G1 F2100 E1064.22084
G1 F3600 X158.643 Y214.087 E1064.67758
G1 F2100 E1064.27758
G0 F12000 X155.703 Y212.391
G1 F2100 E1064.67758
G1 F3600 X165.219 Y206.897 E1065.13441
G0 F12000 X165.803 Y206.560
G1 F3600 X182.279 Y197.047 E1065.92539
G0 F12000 X182.701 Y196.316
G1 F3600 X174.463 Y191.560 E1066.32086
G1 F2100 E1065.92086
G0 F12000 X173.346 Y193.496
G1 F2100 E1066.32086
G1 F3600 X173.346 Y212.523 E1067.11191
G1 F2100 E1066.71191
G0 F12000 X175.349 Y209.049
G1 F2100 E1067.11191
G1 F3600 X167.112 Y204.293 E1067.50735
G1 F2100 E1067.10735
G0 F12000 X180.506 Y181.093
G1 F2100 E1067.50735
G1 F3600 X196.983 Y171.580 E1068.29836
G0 F12000 X197.405 Y170.850
G1 F3600 X189.166 Y166.093 E1068.69389
G1 F2100 E1068.29389
G0 F12000 X188.049 Y168.029
G1 F2100 E1068.69389
G1 F3600 X188.049 Y187.057 E1069.48499
G1 F2100 E1069.08499
G0 F12000 X190.053 Y183.583
G1 F2100 E1069.48499
G1 F3600 X181.815 Y178.826 E1069.88048
G1 F2100 E1069.48048
G0 F12000 X195.208 Y155.627
G1 F2100 E1069.88048
G1 F3600 X196.409 Y154.934 E1069.93813
G1 F2100 E1069.53813
G0 F12000 X202.752 Y158.601
G1 F2100 E1069.93813
G1 F3600 X202.752 Y161.592 E1070.06248
G1 F2100 E1069.66248
G0 F12000 X114.534 Y177.635
G1 F2100 E1070.06248
G1 F3600 X114.534 Y188.621 E1070.51923
;LAYER:10
M106 S104
G1 F2100 E1070.11923
G0 F12000 X109.269 Y182.944 Z2.200
;TYPE:WALL-INNER
G1 F2100 E1070.51923
G1 F3600 X112.972 Y176.530 E1070.82714
G1 X165.447 Y206.828 E1073.34633
G1 X195.744 Y154.350 E1075.86561
G1 X204.095 Y159.173 E1076.26655
G1 X225.210 Y122.602 E1078.02223
G1 X225.512 Y122.521 E1078.03523
G1 X169.057 Y220.303 E1082.72944
G1 X71.276 Y163.848 E1087.42363
G1 X74.635 Y162.948 E1087.56820
G1 X109.269 Y182.944 E1089.23088
G0 F12000 X109.086 Y182.261
;TYPE:WALL-OUTER
G1 F3600 X112.789 Y175.847 E1089.53879
G1 X165.264 Y206.145 E1092.05798
G1 X195.561 Y153.667 E1094.57726
G1 X203.912 Y158.490 E1094.97820
G1 X224.881 Y122.173 E1096.72169
G1 X226.548 Y121.726 E1096.79345
G1 X169.240 Y220.986 E1101.55861
G1 X69.981 Y163.678 E1106.32374
G1 X74.706 Y162.411 E1106.52713
G1 X109.086 Y182.261 E1108.17762
G1 F2100 E1107.77762
G0 F12000 X111.735 Y187.006
;TYPE:FILL
G1 F2100 E1108.17762
G1 F3600 X121.250 Y181.512 E1108.63441
G1 F2100 E1108.23441
G0 F12000 X129.096 Y186.042
G1 F2100 E1108.63441
G1 F3600 X129.096 Y197.028 E1109.09116
G1 F2100 E1108.69116
G0 F12000 X126.439 Y195.494
G1 F2100 E1109.09116
G1 F3600 X135.954 Y190.001 E1109.54793
G1 F2100 E1109.14793
G0 F12000 X143.799 Y194.531
G1 F2100 E1109.54793
G1 F3600 X143.799 Y205.517 E1110.00468
G1 F2100 E1109.60468
G0 F12000 X141.141 Y203.983
G1 F2100 E1110.00468
G1 F3600 X150.657 Y198.489 E1110.46151
G1 F2100 E1110.06151
G0 F12000 X158.502 Y203.020
G1 F2100 E1110.46151
G1 F3600 X158.502 Y214.006 E1110.91825
G1 F2100 E1110.51825
G0 F12000 X155.843 Y212.473
G1 F2100 E1110.91825
G1 F3600 X165.360 Y206.978 E1111.37514
G0 F12000 X165.664 Y206.803
G1 F3600 X182.138 Y197.291 E1112.16602
G0 F12000 X182.771 Y196.193
G1 F3600 X174.534 Y191.437 E1112.56146
G1 F2100 E1112.16146
G0 F12000 X173.205 Y193.741
G1 F2100 E1112.56146
G1 F3600 X173.205 Y212.767 E1113.35247
G1 F2100 E1112.95247
G0 F12000 X175.420 Y208.927
G1 F2100 E1113.35247
G1 F3600 X167.182 Y204.171 E1113.74795
G1 F2100 E1113.34795
G0 F12000 X180.366 Y181.337
G1 F2100 E1113.74795
G1 F3600 X196.842 Y171.824 E1114.53892
G0 F12000 X197.475 Y170.728
G1 F3600 X189.237 Y165.971 E1114.93442
G1 F2100 E1114.53442
G0 F12000 X187.908 Y168.274
G1 F2100 E1114.93442
G1 F3600 X187.908 Y187.302 E1115.72551
G1 F2100 E1115.32551
G0 F12000 X190.124 Y183.461
G1 F2100 E1115.72551
G1 F3600 X181.885 Y178.704 E1116.12104
G1 F2100 E1115.72104
G0 F12000 X195.068 Y155.871
G1 F2100 E1116.12104
G1 F3600 X196.549 Y155.016 E1116.19214
G1 F2100 E1115.79214
G0 F12000 X202.611 Y158.520
G1 F2100 E1116.19214
G1 F3600 X202.611 Y161.837 E1116.33005
G1 F2100 E1115.93005
G0 F12000 X114.393 Y177.553
G1 F2100 E1116.33005
G1 F3600 X114.393 Y188.539 E1116.78679
G1 F2100 E1116.38679
G0 F12000 X99.690 Y180.050
G1 F2100 E1116.78679
G1 F3600 X99.690 Y177.616 E1116.88798
G0 F12000 X99.143 Y177.298
G1 F3600 X97.033 Y178.516 E1116.98928
G1 F2100 E1116.58928
G0 F12000 X84.987 Y171.561
G1 F2100 E1116.98928
G1 F3600 X84.987 Y169.127 E1117.09047
G0 F12000 X84.440 Y168.809
G1 F3600 X82.330 Y170.028 E1117.19178
;LAYER:11
M106 S114
G1 F2100 E1116.79178
G0 F12000 X74.635 Y162.948 Z2.400
;TYPE:WALL-INNER
G1 F2100 E1117.19178
G1 F3600 X109.269 Y182.944 E1118.85445
G1 X112.972 Y176.529 E1119.16240
G1 X165.447 Y206.828 E1121.68161
G1 X195.744 Y154.350 E1124.20089
G1 X204.095 Y159.173 E1124.60183
G1 X225.210 Y122.602 E1126.35751
G1 X225.512 Y122.521 E1126.37051
G1 X169.057 Y220.303 E1131.06472
G1 X71.276 Y163.848 E1135.75891
G1 X74.635 Y162.948 E1135.90348
G0 F12000 X74.706 Y162.411
;TYPE:WALL-OUTER
G1 F3600 X109.086 Y182.261 E1137.55397
G1 X112.789 Y175.846 E1137.86192
G1 X165.264 Y206.145 E1140.38114
G1 X195.561 Y153.667 E1142.90042
G1 X203.912 Y158.490 E1143.30135
G1 X224.881 Y122.173 E1145.04485
G1 X226.548 Y121.726 E1145.11660
G1 X169.240 Y220.986 E1149.88177
G1 X69.981 Y163.678 E1154.64690
G1 X74.706 Y162.411 E1154.85028
G1 F2100 E1154.45028
G0 F12000 X82.472 Y170.110
;TYPE:FILL
G1 F2100 E1154.85028
G1 F3600 X84.582 Y168.891 E1154.95159
G0 F12000 X84.845 Y169.045
G1 F3600 X84.845 Y171.479 E1155.05279
G1 F2100 E1154.65279
G0 F12000 X97.175 Y178.598
G1 F2100 E1155.05279
G1 F3600 X99.285 Y177.380 E1155.15408
G0 F12000 X99.548 Y177.534
G1 F3600 X99.548 Y179.968 E1155.25527
G1 F2100 E1154.85527
G0 F12000 X111.877 Y187.088
G1 F2100 E1155.25527
G1 F3600 X121.394 Y181.593 E1155.71216
G1 F2100 E1155.31216
G0 F12000 X128.954 Y185.960
G1 F2100 E1155.71216
G1 F3600 X128.954 Y196.946 E1156.16890
G1 F2100 E1155.76890
G0 F12000 X126.581 Y195.576
G1 F2100 E1156.16890
G1 F3600 X136.096 Y190.082 E1156.62570
G1 F2100 E1156.22570
G0 F12000 X143.657 Y194.449
G1 F2100 E1156.62570
G1 F3600 X143.657 Y205.435 E1157.08245
G1 F2100 E1156.68245
G0 F12000 X141.283 Y204.065
G1 F2100 E1157.08245
G1 F3600 X150.799 Y198.571 E1157.53928
G1 F2100 E1157.13928
G0 F12000 X158.360 Y202.938
G1 F2100 E1157.53928
G1 F3600 X158.360 Y213.924 E1157.99602
G1 F2100 E1157.59602
G0 F12000 X155.985 Y212.555
G1 F2100 E1157.99602
G1 F3600 X165.502 Y207.060 E1158.45291
G0 F12000 X165.522 Y207.049
G1 F3600 X181.996 Y197.537 E1159.24379
G1 F2100 E1158.84379
G0 F12000 X182.842 Y196.070
G1 F2100 E1159.24379
G1 F3600 X174.605 Y191.314 E1159.63923
G1 F2100 E1159.23923
G0 F12000 X173.063 Y193.987
G1 F2100 E1159.63923
G1 F3600 X173.063 Y213.013 E1160.43024
G1 F2100 E1160.03024
G0 F12000 X175.491 Y208.804
G1 F2100 E1160.43024
G1 F3600 X167.253 Y204.048 E1160.82572
G1 F2100 E1160.42572
G0 F12000 X180.224 Y181.583
G1 F2100 E1160.82572
G1 F3600 X196.700 Y172.070 E1161.61669
G1 F2100 E1161.21669
G0 F12000 X197.546 Y170.605
G1 F2100 E1161.61669
G1 F3600 X189.308 Y165.848 E1162.01219
G1 F2100 E1161.61219
G0 F12000 X187.766 Y168.520
G1 F2100 E1162.01219
G1 F3600 X187.766 Y187.548 E1162.80328
G1 F2100 E1162.40328
G0 F12000 X190.195 Y183.338
G1 F2100 E1162.80328
G1 F3600 X181.956 Y178.581 E1163.19881
G1 F2100 E1162.79881
G0 F12000 X194.926 Y156.117
G1 F2100 E1163.19881
G1 F3600 X196.691 Y155.098 E1163.28354
G1 F2100 E1162.88354
G0 F12000 X202.469 Y158.438
G1 F2100 E1163.28354
G1 F3600 X202.469 Y162.083 E1163.43509
G1 F2100 E1163.03509
G0 F12000 X114.251 Y177.470
G1 F2100 E1163.43509
G1 F3600 X114.251 Y188.457 E1163.89187
;LAYER:12
M106 S127
G1 F2100 E1163.49187
G0 F12000 X109.269 Y182.944 Z2.600
